;FLAVOR:Marlin
;TIME:4031
;Filament used: 1.95199m
;Layer height: 0.175
;Generated with Cura_SteamEngine 3.3.1
M190 S65
M104 S205
M109 S205
M82 ;absolute extrusion mode
G21;(metric values)
G90;(absolute positioning)
M82;(set extruder to absolute mode)
M107;(start with the fan off)
G28;(Home the printer)
G92 E0;(Reset the extruder to 0)
G0 Z5 E5 F500;(Move up and prime the nozzle)
G0 X-1 Z0;(Move outside the printable area)
G1 Y60 E8 F500;(Draw a priming/wiping line to the rear)
G1 X-1;(Move a little closer to the print area)
G1 Y10 E16 F500;(draw more priming/wiping)
G1 E15 F250;(Small retract)
G92 E0;(Zero the extruder)
G92 E0
G1 F2400 E-2.5
;LAYER_COUNT:46
;LAYER:0
M107
G0 F4320 X31.921 Y31.395 Z0.262
;TYPE:SKIRT
G1 F2400 E0
G1 F1800 X32.384 Y30.959 E0.01801
G1 X32.899 Y30.585 E0.03604
G1 X33.457 Y30.278 E0.05407
G1 X34.049 Y30.044 E0.0721
G1 X34.665 Y29.885 E0.09012
G1 X35.297 Y29.805 E0.10816
G1 X35.617 Y29.795 E0.11723
G1 X47.637 Y29.795 E0.45765
G1 X48.272 Y29.835 E0.47567
G1 X48.898 Y29.954 E0.49371
G1 X49.503 Y30.151 E0.51173
G1 X50.079 Y30.422 E0.52976
G1 X50.092 Y30.43 E0.53019
G1 X50.646 Y30.287 E0.5464
G1 X51.278 Y30.207 E0.56444
G1 X51.598 Y30.197 E0.57351
G1 X63.618 Y30.197 E0.91392
G1 X64.253 Y30.237 E0.93194
G1 X64.879 Y30.356 E0.94999
G1 X65.484 Y30.553 E0.96801
G1 X66.06 Y30.824 E0.98604
G1 X66.597 Y31.165 E1.00405
G1 X67.088 Y31.571 E1.0221
G1 X67.524 Y32.034 E1.04011
G1 X67.898 Y32.549 E1.05814
G1 X68.205 Y33.107 E1.07617
G1 X68.439 Y33.699 E1.0942
G1 X68.598 Y34.315 E1.11222
G1 X68.678 Y34.947 E1.13026
G1 X68.688 Y35.267 E1.13933
G1 X68.688 Y54.266 E1.6774
G1 X68.66 Y54.798 E1.69249
G1 X68.528 Y56.049 E1.72811
G1 X68.422 Y56.677 E1.74615
G1 X68.307 Y57.086 E1.75818
G1 X68.177 Y57.485 E1.77007
G1 X84.383 Y57.485 E2.22904
G1 X85.018 Y57.525 E2.24706
G1 X85.644 Y57.644 E2.2651
G1 X86.249 Y57.841 E2.28312
G1 X86.825 Y58.112 E2.30115
G1 X87.362 Y58.453 E2.31917
G1 X87.853 Y58.859 E2.33721
G1 X88.289 Y59.322 E2.35522
G1 X88.663 Y59.837 E2.37325
G1 X88.97 Y60.395 E2.39128
G1 X89.204 Y60.987 E2.40931
G1 X89.363 Y61.603 E2.42733
G1 X89.443 Y62.235 E2.44537
G1 X89.453 Y62.555 E2.45444
G1 X89.453 Y85.135 E3.09393
G1 X89.413 Y85.77 E3.11195
G1 X89.294 Y86.396 E3.12999
G1 X89.097 Y87.001 E3.14801
G1 X88.826 Y87.577 E3.16604
G1 X88.485 Y88.114 E3.18406
G1 X88.079 Y88.605 E3.2021
G1 X87.616 Y89.041 E3.22011
G1 X87.101 Y89.415 E3.23814
G1 X86.543 Y89.722 E3.25617
G1 X85.951 Y89.956 E3.2742
G1 X85.335 Y90.115 E3.29222
G1 X84.703 Y90.195 E3.31026
G1 X84.383 Y90.205 E3.31933
G1 X38.383 Y90.205 E4.62209
G1 X37.748 Y90.165 E4.64011
G1 X37.122 Y90.046 E4.65816
G1 X36.517 Y89.849 E4.67618
G1 X35.941 Y89.578 E4.69421
G1 X35.404 Y89.237 E4.71222
G1 X34.913 Y88.831 E4.73027
G1 X34.477 Y88.368 E4.74828
G1 X34.103 Y87.853 E4.7663
G1 X33.796 Y87.295 E4.78434
G1 X33.562 Y86.703 E4.80237
G1 X33.403 Y86.087 E4.82039
G1 X33.323 Y85.455 E4.83843
G1 X33.313 Y85.135 E4.8475
G1 X33.313 Y62.555 E5.48698
G1 X33.353 Y61.92 E5.505
G1 X33.468 Y61.314 E5.52247
G1 X32.998 Y60.792 E5.54237
G1 X32.602 Y60.293 E5.56041
G1 X32.37 Y59.927 E5.57268
G1 X31.744 Y58.84 E5.6082
G1 X31.462 Y58.27 E5.62622
G1 X31.319 Y57.884 E5.63787
G1 X30.929 Y56.69 E5.67345
G1 X30.769 Y56.074 E5.69147
G1 X30.706 Y55.644 E5.70378
G1 X30.575 Y54.394 E5.73937
G1 X30.547 Y53.866 E5.75435
G1 X30.547 Y34.865 E6.29248
G1 X30.587 Y34.23 E6.3105
G1 X30.706 Y33.604 E6.32854
G1 X30.903 Y32.999 E6.34656
G1 X31.174 Y32.423 E6.36459
G1 X31.354 Y32.14 E6.37409
G0 F1620 X31.515 Y31.886
G0 X31.921 Y31.395
G0 F4320 X32.177 Y31.503
G1 F2400 E6.40065
G1 F1800 X32.638 Y31.089 E6.4182
G1 X33.149 Y30.737 E6.43578
G1 X33.7 Y30.453 E6.45333
G1 X34.283 Y30.244 E6.47087
G1 X34.889 Y30.11 E6.48845
G1 X35.617 Y30.055 E6.50912
G1 X47.637 Y30.055 E6.84954
G1 X48.256 Y30.095 E6.86711
G1 X48.864 Y30.214 E6.88466
G1 X49.452 Y30.411 E6.90222
G1 X50.01 Y30.681 E6.91977
G1 X50.065 Y30.717 E6.92164
G1 X50.264 Y30.646 E6.92762
G1 X50.87 Y30.512 E6.9452
G1 X51.598 Y30.457 E6.96587
G1 X63.618 Y30.457 E7.30629
G1 X64.237 Y30.497 E7.32386
G1 X64.845 Y30.616 E7.34141
G1 X65.433 Y30.813 E7.35897
G1 X65.991 Y31.083 E7.37652
G1 X66.51 Y31.423 E7.3941
G1 X66.98 Y31.827 E7.41165
G1 X67.394 Y32.288 E7.4292
G1 X67.746 Y32.799 E7.44677
G1 X68.03 Y33.35 E7.46433
G1 X68.239 Y33.933 E7.48187
G1 X68.373 Y34.539 E7.49944
G1 X68.428 Y35.267 E7.52012
G1 X68.428 Y54.266 E8.05819
G1 X68.401 Y54.771 E8.07251
G1 X68.269 Y56.022 E8.10814
G1 X68.165 Y56.633 E8.12569
G1 X68.06 Y57.006 E8.13667
G1 X67.819 Y57.745 E8.15868
G1 X84.383 Y57.745 E8.62779
G1 X85.002 Y57.785 E8.64536
G1 X85.61 Y57.904 E8.6629
G1 X86.198 Y58.101 E8.68046
G1 X86.756 Y58.371 E8.69802
G1 X87.275 Y58.711 E8.71559
G1 X87.745 Y59.115 E8.73315
G1 X88.159 Y59.576 E8.75069
G1 X88.511 Y60.087 E8.76827
G1 X88.795 Y60.638 E8.78582
G1 X89.004 Y61.221 E8.80336
G1 X89.138 Y61.827 E8.82094
G1 X89.193 Y62.555 E8.84162
G1 X89.193 Y85.135 E9.4811
G1 X89.153 Y85.754 E9.49867
G1 X89.034 Y86.362 E9.51622
G1 X88.837 Y86.95 E9.53378
G1 X88.567 Y87.508 E9.55134
G1 X88.227 Y88.027 E9.56891
G1 X87.823 Y88.497 E9.58646
G1 X87.362 Y88.911 E9.60401
G1 X86.851 Y89.263 E9.62158
G1 X86.3 Y89.547 E9.63914
G1 X85.717 Y89.756 E9.65668
G1 X85.111 Y89.89 E9.67425
G1 X84.383 Y89.945 E9.69493
G1 X38.383 Y89.945 E10.9977
G1 X37.764 Y89.905 E11.01526
G1 X37.156 Y89.786 E11.03281
G1 X36.568 Y89.589 E11.05037
G1 X36.01 Y89.319 E11.06793
G1 X35.491 Y88.979 E11.0855
G1 X35.021 Y88.575 E11.10305
G1 X34.607 Y88.114 E11.1206
G1 X34.255 Y87.603 E11.13817
G1 X33.971 Y87.052 E11.15573
G1 X33.762 Y86.469 E11.17327
G1 X33.628 Y85.863 E11.19085
G1 X33.573 Y85.135 E11.21152
G1 X33.573 Y62.555 E11.85101
G1 X33.613 Y61.936 E11.86858
G1 X33.732 Y61.328 E11.88612
G1 X33.759 Y61.247 E11.88854
G1 X33.191 Y60.617 E11.91257
G1 X32.807 Y60.131 E11.93011
G1 X32.596 Y59.797 E11.9413
G1 X31.97 Y58.71 E11.97682
G1 X31.696 Y58.154 E11.99438
G1 X31.566 Y57.803 E12.00498
G1 X31.176 Y56.609 E12.04055
G1 X31.022 Y56.009 E12.05809
G1 X30.964 Y55.617 E12.06932
G1 X30.833 Y54.367 E12.10491
G1 X30.807 Y53.866 E12.11912
G1 X30.807 Y34.865 E12.65725
G1 X30.847 Y34.246 E12.67481
G1 X30.966 Y33.638 E12.69236
G1 X31.163 Y33.05 E12.70992
G1 X31.433 Y32.492 E12.72748
G1 X31.599 Y32.24 E12.73602
G0 F1620 X31.773 Y31.973
G0 X32.177 Y31.503
G0 F4320 X32.433 Y31.615
G1 F2400 E12.76259
G1 F1800 X32.891 Y31.222 E12.77968
G1 X33.397 Y30.894 E12.79676
G1 X33.941 Y30.635 E12.81382
G1 X34.515 Y30.45 E12.8309
G1 X35.109 Y30.343 E12.848
G1 X35.617 Y30.315 E12.86241
G1 X47.637 Y30.315 E13.20282
G1 X48.239 Y30.355 E13.21991
G1 X48.83 Y30.474 E13.23698
G1 X49.4 Y30.67 E13.25405
G1 X49.939 Y30.94 E13.27113
G1 X50.03 Y31.002 E13.27425
G1 X50.496 Y30.852 E13.28811
G1 X51.09 Y30.745 E13.3052
G1 X51.598 Y30.717 E13.31961
G1 X63.618 Y30.717 E13.66003
G1 X64.22 Y30.757 E13.67712
G1 X64.811 Y30.876 E13.69419
G1 X65.381 Y31.072 E13.71126
G1 X65.92 Y31.342 E13.72834
G1 X66.419 Y31.681 E13.74542
G1 X66.868 Y32.083 E13.76249
G1 X67.261 Y32.541 E13.77958
G1 X67.589 Y33.047 E13.79666
G1 X67.848 Y33.591 E13.81372
G1 X68.033 Y34.165 E13.8308
G1 X68.14 Y34.759 E13.8479
G1 X68.168 Y35.267 E13.8623
G1 X68.168 Y54.266 E14.40038
G1 X68.143 Y54.743 E14.4139
G1 X68.011 Y55.994 E14.44953
G1 X67.908 Y56.589 E14.46663
G1 X67.813 Y56.925 E14.47652
G1 X67.461 Y58.005 E14.50869
G1 X84.383 Y58.005 E14.98794
G1 X84.985 Y58.045 E15.00502
G1 X85.576 Y58.164 E15.0221
G1 X86.146 Y58.36 E15.03917
G1 X86.685 Y58.63 E15.05624
G1 X87.184 Y58.969 E15.07333
G1 X87.633 Y59.371 E15.0904
G1 X88.026 Y59.829 E15.10749
G1 X88.354 Y60.335 E15.12456
G1 X88.613 Y60.879 E15.14163
G1 X88.798 Y61.453 E15.15871
G1 X88.905 Y62.047 E15.1758
G1 X88.933 Y62.555 E15.19021
G1 X88.933 Y85.135 E15.8297
G1 X88.893 Y85.737 E15.84679
G1 X88.774 Y86.328 E15.86386
G1 X88.578 Y86.898 E15.88093
G1 X88.308 Y87.437 E15.898
G1 X87.969 Y87.936 E15.91509
G1 X87.567 Y88.385 E15.93216
G1 X87.109 Y88.778 E15.94925
G1 X86.603 Y89.106 E15.96633
G1 X86.059 Y89.365 E15.98339
G1 X85.485 Y89.55 E16.00047
G1 X84.891 Y89.657 E16.01756
G1 X84.383 Y89.685 E16.03197
G1 X38.383 Y89.685 E17.33474
G1 X37.781 Y89.645 E17.35182
G1 X37.19 Y89.526 E17.3689
G1 X36.62 Y89.33 E17.38597
G1 X36.081 Y89.06 E17.40304
G1 X35.582 Y88.721 E17.42013
G1 X35.133 Y88.319 E17.4372
G1 X34.74 Y87.861 E17.45429
G1 X34.412 Y87.355 E17.47136
G1 X34.153 Y86.811 E17.48843
G1 X33.968 Y86.237 E17.50551
G1 X33.861 Y85.643 E17.5226
G1 X33.833 Y85.135 E17.53701
G1 X33.833 Y62.555 E18.1765
G1 X33.873 Y61.953 E18.19359
G1 X33.992 Y61.362 E18.21066
G1 X34.053 Y61.185 E18.21596
G1 X33.384 Y60.443 E18.24426
G1 X33.011 Y59.97 E18.26132
G1 X32.821 Y59.668 E18.27142
G1 X32.195 Y58.581 E18.30695
G1 X31.929 Y58.039 E18.32404
G1 X31.813 Y57.723 E18.33358
G1 X31.423 Y56.529 E18.36915
G1 X31.274 Y55.944 E18.38625
G1 X31.223 Y55.59 E18.39638
G1 X31.092 Y54.34 E18.43197
G1 X31.067 Y53.866 E18.44542
G1 X31.067 Y34.865 E18.98354
G1 X31.107 Y34.263 E19.00063
G1 X31.226 Y33.672 E19.0177
G1 X31.422 Y33.102 E19.03477
G1 X31.692 Y32.563 E19.05185
G1 X31.843 Y32.342 E19.05943
G0 F1620 X32.031 Y32.064
G0 X32.433 Y31.615
G0 F4320 X32.689 Y31.73
G1 F2400 E19.08599
G1 F1800 X33.143 Y31.36 E19.10258
G1 X33.643 Y31.056 E19.11915
G1 X34.18 Y30.823 E19.13573
G1 X34.744 Y30.665 E19.15232
G1 X35.324 Y30.585 E19.1689
G1 X35.617 Y30.575 E19.1772
G1 X47.637 Y30.575 E19.51762
G1 X48.221 Y30.615 E19.5342
G1 X48.794 Y30.734 E19.55077
G1 X49.346 Y30.93 E19.56736
G1 X49.866 Y31.199 E19.58394
G1 X50.001 Y31.294 E19.58862
G1 X50.161 Y31.225 E19.59355
G1 X50.725 Y31.067 E19.61014
G1 X51.305 Y30.987 E19.62672
G1 X51.598 Y30.977 E19.63503
G1 X63.618 Y30.977 E19.97544
G1 X64.202 Y31.017 E19.99202
G1 X64.775 Y31.136 E20.0086
G1 X65.327 Y31.332 E20.02519
G1 X65.847 Y31.601 E20.04177
G1 X66.325 Y31.939 E20.05835
G1 X66.753 Y32.339 E20.07494
G1 X67.123 Y32.793 E20.09152
G1 X67.427 Y33.293 E20.1081
G1 X67.66 Y33.83 E20.12468
G1 X67.818 Y34.394 E20.14126
G1 X67.898 Y34.974 E20.15785
G1 X67.908 Y35.267 E20.16615
G1 X67.908 Y54.266 E20.70422
G1 X67.884 Y54.716 E20.71698
G1 X67.752 Y55.967 E20.75261
G1 X67.651 Y56.544 E20.7692
G1 X67.565 Y56.845 E20.77806
G1 X67.176 Y58.04 E20.81365
G1 X67.086 Y58.265 E20.82052
G1 X84.383 Y58.265 E21.31039
G1 X84.967 Y58.305 E21.32696
G1 X85.54 Y58.424 E21.34354
G1 X86.092 Y58.62 E21.36013
G1 X86.612 Y58.889 E21.37671
G1 X87.09 Y59.227 E21.39329
G1 X87.518 Y59.627 E21.40988
G1 X87.888 Y60.081 E21.42647
G1 X88.192 Y60.581 E21.44304
G1 X88.425 Y61.118 E21.45962
G1 X88.583 Y61.682 E21.47621
G1 X88.663 Y62.262 E21.49279
G1 X88.673 Y62.555 E21.50109
G1 X88.673 Y85.135 E22.14058
G1 X88.633 Y85.719 E22.15716
G1 X88.514 Y86.292 E22.17373
G1 X88.318 Y86.844 E22.19032
G1 X88.049 Y87.364 E22.2069
G1 X87.711 Y87.842 E22.22348
G1 X87.311 Y88.27 E22.24007
G1 X86.857 Y88.64 E22.25666
G1 X86.357 Y88.944 E22.27323
G1 X85.82 Y89.177 E22.28981
G1 X85.256 Y89.335 E22.3064
G1 X84.676 Y89.415 E22.32298
G1 X84.383 Y89.425 E22.33128
G1 X38.383 Y89.425 E23.63405
G1 X37.799 Y89.385 E23.65063
G1 X37.226 Y89.266 E23.6672
G1 X36.674 Y89.07 E23.68379
G1 X36.154 Y88.801 E23.70037
G1 X35.676 Y88.463 E23.71695
G1 X35.248 Y88.063 E23.73354
G1 X34.878 Y87.609 E23.75013
G1 X34.574 Y87.109 E23.7667
G1 X34.341 Y86.572 E23.78328
G1 X34.183 Y86.008 E23.79987
G1 X34.103 Y85.428 E23.81645
G1 X34.093 Y85.135 E23.82475
G1 X34.093 Y62.555 E24.46424
G1 X34.133 Y61.971 E24.48082
G1 X34.252 Y61.398 E24.49739
G1 X34.349 Y61.125 E24.5056
G1 X33.577 Y60.269 E24.53824
G1 X33.216 Y59.809 E24.5548
G1 X33.046 Y59.538 E24.56386
G1 X32.42 Y58.451 E24.59939
G1 X32.164 Y57.925 E24.61596
G1 X32.06 Y57.642 E24.6245
G1 X31.67 Y56.448 E24.66007
G1 X31.527 Y55.88 E24.67666
G1 X31.481 Y55.563 E24.68573
G1 X31.35 Y54.313 E24.72132
G1 X31.327 Y53.866 E24.734
G1 X31.327 Y34.865 E25.27213
G1 X31.367 Y34.281 E25.28871
G1 X31.486 Y33.708 E25.30528
G1 X31.682 Y33.156 E25.32187
G1 X31.951 Y32.636 E25.33845
G1 X32.086 Y32.446 E25.34505
G0 F1620 X32.289 Y32.158
G0 X32.689 Y31.73
G0 F4320 X32.547 Y32.255
G1 F2400 E25.37162
G1 F1800 X32.944 Y31.849 E25.3877
G1 X33.394 Y31.504 E25.40376
G1 X33.888 Y31.225 E25.41983
G1 X34.416 Y31.018 E25.43589
G1 X34.969 Y30.887 E25.45198
G1 X35.617 Y30.835 E25.47039
G1 X47.637 Y30.835 E25.81081
G1 X48.203 Y30.875 E25.82688
G1 X48.758 Y30.994 E25.84296
G1 X49.29 Y31.19 E25.85901
G1 X49.79 Y31.458 E25.87508
G1 X49.967 Y31.589 E25.88132
G1 X50.397 Y31.42 E25.8944
G1 X50.95 Y31.289 E25.9105
G1 X51.598 Y31.237 E25.92891
G1 X63.618 Y31.237 E26.26933
G1 X64.184 Y31.277 E26.28539
G1 X64.739 Y31.396 E26.30147
G1 X65.271 Y31.592 E26.31753
G1 X65.771 Y31.86 E26.33359
G1 X66.228 Y32.197 E26.34967
G1 X66.634 Y32.594 E26.36576
G1 X66.979 Y33.044 E26.38182
G1 X67.258 Y33.538 E26.39788
G1 X67.465 Y34.066 E26.41394
G1 X67.596 Y34.619 E26.43004
G1 X67.648 Y35.267 E26.44845
G1 X67.648 Y54.266 E26.98652
G1 X67.626 Y54.689 E26.99852
G1 X67.494 Y55.94 E27.03414
G1 X67.318 Y56.764 E27.05801
G1 X66.929 Y57.959 E27.0936
G1 X66.677 Y58.525 E27.11114
G1 X84.383 Y58.525 E27.6126
G1 X84.949 Y58.565 E27.62867
G1 X85.504 Y58.684 E27.64474
G1 X86.036 Y58.88 E27.6608
G1 X86.536 Y59.148 E27.67686
G1 X86.993 Y59.485 E27.69295
G1 X87.399 Y59.882 E27.70903
G1 X87.744 Y60.332 E27.72509
G1 X88.023 Y60.826 E27.74115
G1 X88.23 Y61.354 E27.75722
G1 X88.361 Y61.907 E27.77331
G1 X88.413 Y62.555 E27.79172
G1 X88.413 Y85.135 E28.43121
G1 X88.373 Y85.701 E28.44728
G1 X88.254 Y86.256 E28.46336
G1 X88.058 Y86.788 E28.47941
G1 X87.79 Y87.288 E28.49548
G1 X87.453 Y87.745 E28.51156
G1 X87.056 Y88.151 E28.52764
G1 X86.606 Y88.496 E28.5437
G1 X86.112 Y88.775 E28.55977
G1 X85.584 Y88.982 E28.57583
G1 X85.031 Y89.113 E28.59192
G1 X84.383 Y89.165 E28.61034
G1 X38.383 Y89.165 E29.9131
G1 X37.817 Y89.125 E29.92917
G1 X37.262 Y89.006 E29.94525
G1 X36.73 Y88.81 E29.9613
G1 X36.23 Y88.542 E29.97737
G1 X35.773 Y88.205 E29.99345
G1 X35.367 Y87.808 E30.00953
G1 X35.022 Y87.358 E30.02559
G1 X34.743 Y86.864 E30.04166
G1 X34.536 Y86.336 E30.05772
G1 X34.405 Y85.783 E30.07382
G1 X34.353 Y85.135 E30.09223
G1 X34.353 Y62.555 E30.73172
G1 X34.393 Y61.989 E30.74779
G1 X34.512 Y61.434 E30.76386
G1 X34.649 Y61.062 E30.77509
G1 X34.612 Y61.028 E30.77651
G1 X33.771 Y60.095 E30.81208
G1 X33.272 Y59.408 E30.83613
G1 X32.646 Y58.321 E30.87166
G1 X32.307 Y57.561 E30.89523
G1 X31.917 Y56.367 E30.9308
G1 X31.74 Y55.536 E30.95486
G1 X31.609 Y54.286 E30.99046
G1 X31.587 Y53.866 E31.00237
G1 X31.587 Y34.865 E31.5405
G1 X31.627 Y34.299 E31.55656
G1 X31.746 Y33.744 E31.57264
G1 X31.942 Y33.212 E31.5887
G1 X32.035 Y33.039 E31.59426
G0 F1620 X32.21 Y32.712
G0 X32.547 Y32.255
G0 F4320 X32.804 Y32.355
G1 F2400 E31.62082
G1 F1800 X33.198 Y31.973 E31.63637
G1 X33.644 Y31.653 E31.65191
G1 X34.131 Y31.4 E31.66746
G1 X34.65 Y31.221 E31.683
G1 X35.189 Y31.119 E31.69854
G1 X35.617 Y31.095 E31.71068
G1 X47.637 Y31.095 E32.0511
G1 X48.184 Y31.135 E32.06663
G1 X48.72 Y31.254 E32.08218
G1 X49.233 Y31.449 E32.09772
G1 X49.712 Y31.717 E32.11327
G1 X49.939 Y31.892 E32.12139
G1 X50.112 Y31.802 E32.12691
G1 X50.631 Y31.623 E32.14246
G1 X51.17 Y31.521 E32.15799
G1 X51.598 Y31.497 E32.17013
G1 X63.618 Y31.497 E32.51055
G1 X64.165 Y31.537 E32.52609
G1 X64.701 Y31.656 E32.54163
G1 X65.214 Y31.851 E32.55718
G1 X65.693 Y32.119 E32.57272
G1 X66.128 Y32.454 E32.58827
G1 X66.51 Y32.848 E32.60381
G1 X66.83 Y33.294 E32.61936
G1 X67.083 Y33.781 E32.6349
G1 X67.262 Y34.3 E32.65045
G1 X67.364 Y34.839 E32.66599
G1 X67.388 Y35.267 E32.67813
G1 X67.388 Y54.266 E33.2162
G1 X67.367 Y54.662 E33.22743
G1 X67.235 Y55.913 E33.26305
G1 X67.071 Y56.684 E33.28538
G1 X66.682 Y57.879 E33.32097
G1 X66.363 Y58.595 E33.34317
G1 X66.253 Y58.785 E33.34939
G1 X84.383 Y58.785 E33.86285
G1 X84.93 Y58.825 E33.87838
G1 X85.466 Y58.944 E33.89393
G1 X85.979 Y59.139 E33.90947
G1 X86.458 Y59.407 E33.92502
G1 X86.893 Y59.742 E33.94057
G1 X87.275 Y60.136 E33.95611
G1 X87.595 Y60.582 E33.97166
G1 X87.848 Y61.069 E33.9872
G1 X88.027 Y61.588 E34.00275
G1 X88.129 Y62.127 E34.01828
G1 X88.153 Y62.555 E34.03042
G1 X88.153 Y85.135 E34.66991
G1 X88.113 Y85.682 E34.68544
G1 X87.994 Y86.218 E34.70099
G1 X87.799 Y86.731 E34.71654
G1 X87.531 Y87.21 E34.73208
