;FLAVOR:Marlin
;TIME:4555
;Filament used: 1.72224m
;Layer height: 0.13125
;Generated with Cura_SteamEngine 3.3.1
M190 S65
M104 S205
M109 S205
M82 ;absolute extrusion mode
G21;(metric values)
G90;(absolute positioning)
M82;(set extruder to absolute mode)
M107;(start with the fan off)
G28;(Home the printer)
G92 E0;(Reset the extruder to 0)
G0 Z5 E5 F500;(Move up and prime the nozzle)
G0 X-1 Z0;(Move outside the printable area)
G1 Y60 E8 F500;(Draw a priming/wiping line to the rear)
G1 X-1;(Move a little closer to the print area)
G1 Y10 E16 F500;(draw more priming/wiping)
G1 E15 F250;(Small retract)
G92 E0;(Zero the extruder)
G92 E0
G1 F2400 E-2.5
;LAYER_COUNT:68
;LAYER:0
M107
G0 F4320 X28.421 Y39.539 Z0.262
;TYPE:SKIRT
G1 F2400 E0
G1 F1800 X28.936 Y39.165 E0.01803
G1 X29.494 Y38.858 E0.03606
G1 X30.086 Y38.624 E0.05409
G1 X30.702 Y38.465 E0.07211
G1 X31.334 Y38.385 E0.09015
G1 X31.654 Y38.375 E0.09922
G1 X58.934 Y38.375 E0.87181
G1 X59.569 Y38.415 E0.88983
G1 X60.157 Y38.527 E0.90679
G1 X60.708 Y38.457 E0.92252
G1 X61.028 Y38.447 E0.93158
G1 X88.028 Y38.447 E1.69625
G1 X88.663 Y38.487 E1.71427
G1 X89.289 Y38.606 E1.73232
G1 X89.894 Y38.803 E1.75034
G1 X90.47 Y39.074 E1.76836
G1 X91.007 Y39.415 E1.78638
G1 X91.498 Y39.821 E1.80442
G1 X91.934 Y40.284 E1.82244
G1 X92.308 Y40.799 E1.84046
G1 X92.615 Y41.357 E1.8585
G1 X92.849 Y41.949 E1.87653
G1 X93.008 Y42.565 E1.89454
G1 X93.088 Y43.197 E1.91259
G1 X93.098 Y43.517 E1.92165
G1 X93.098 Y55.517 E2.2615
G1 X93.096 Y55.554 E2.26255
G1 X93.167 Y55.734 E2.26803
G1 X93.326 Y56.35 E2.28605
G1 X93.406 Y56.982 E2.30409
G1 X93.416 Y57.302 E2.31316
G1 X93.416 Y70.301 E2.68131
G1 X93.395 Y70.766 E2.69449
G1 X93.293 Y71.873 E2.72597
G1 X93.12 Y72.798 E2.75262
G1 X92.817 Y73.861 E2.78393
G1 X92.48 Y74.729 E2.8103
G1 X91.985 Y75.724 E2.84177
G1 X91.492 Y76.521 E2.86831
G1 X90.823 Y77.407 E2.89976
G1 X90.191 Y78.1 E2.92632
G1 X89.373 Y78.845 E2.95765
G1 X88.63 Y79.407 E2.98404
G1 X87.686 Y79.992 E3.01549
G1 X86.842 Y80.411 E3.04218
G1 X85.809 Y80.81 E3.07354
G1 X84.916 Y81.064 E3.09983
G1 X83.822 Y81.269 E3.13135
G1 X82.888 Y81.356 E3.15792
G1 X81.783 Y81.356 E3.18921
G1 X80.848 Y81.269 E3.21581
G1 X79.755 Y81.064 E3.2473
G1 X78.863 Y80.81 E3.27357
G1 X77.83 Y80.411 E3.30493
G1 X76.986 Y79.992 E3.33162
G1 X76.042 Y79.407 E3.36307
G1 X75.411 Y78.93 E3.38547
G1 X74.765 Y79.46 E3.40914
G1 X74.248 Y79.832 E3.42718
G1 X73.941 Y80.01 E3.43723
G1 X72.899 Y80.568 E3.4707
G1 X72.321 Y80.833 E3.48871
G1 X71.977 Y80.951 E3.49901
G1 X70.852 Y81.292 E3.5323
G1 X70.232 Y81.438 E3.55034
G1 X69.875 Y81.486 E3.56054
G1 X68.701 Y81.601 E3.59395
G1 X68.065 Y81.623 E3.61197
G1 X67.712 Y81.601 E3.62199
G1 X66.539 Y81.486 E3.65537
G1 X65.911 Y81.384 E3.67339
G1 X65.564 Y81.292 E3.68356
G1 X64.438 Y80.951 E3.71688
G1 X63.842 Y80.729 E3.73489
G1 X63.515 Y80.568 E3.74521
G1 X62.473 Y80.01 E3.77869
G1 X61.931 Y79.675 E3.79673
G1 X61.647 Y79.458 E3.80685
G1 X60.738 Y78.711 E3.84018
G1 X60.273 Y78.277 E3.85819
G1 X60.04 Y78.013 E3.86816
G1 X59.293 Y77.104 E3.90148
G1 X58.92 Y76.588 E3.91951
G1 X58.738 Y76.274 E3.92979
G1 X58.182 Y75.233 E3.96322
G1 X57.918 Y74.653 E3.98127
G1 X57.802 Y74.315 E3.99139
G1 X57.738 Y74.105 E3.9976
G1 X31.913 Y74.105 E4.72899
G1 X31.278 Y74.065 E4.74701
G1 X30.652 Y73.946 E4.76506
G1 X30.047 Y73.749 E4.78308
G1 X29.471 Y73.478 E4.80111
G1 X28.934 Y73.137 E4.81912
G1 X28.443 Y72.731 E4.83717
G1 X28.007 Y72.268 E4.85518
G1 X27.633 Y71.753 E4.8732
G1 X27.326 Y71.195 E4.89124
G1 X27.092 Y70.603 E4.90927
G1 X26.933 Y69.987 E4.92729
G1 X26.853 Y69.355 E4.94533
G1 X26.843 Y69.035 E4.9544
G1 X26.843 Y57.058 E5.2936
G1 X26.833 Y57.033 E5.29436
G1 X26.674 Y56.417 E5.31238
G1 X26.594 Y55.785 E5.33042
G1 X26.584 Y55.465 E5.33948
G1 X26.584 Y43.445 E5.6799
G1 X26.624 Y42.81 E5.69792
G1 X26.743 Y42.184 E5.71597
G1 X26.94 Y41.579 E5.73399
G1 X27.211 Y41.003 E5.75202
G1 X27.552 Y40.466 E5.77003
G1 X27.765 Y40.208 E5.77951
G0 F1620 X27.958 Y39.975
G0 X28.421 Y39.539
G0 F4320 X28.675 Y39.669
G1 F2400 E5.80607
G1 F1800 X29.186 Y39.317 E5.82365
G1 X29.737 Y39.033 E5.8412
G1 X30.32 Y38.824 E5.85874
G1 X30.926 Y38.69 E5.87632
G1 X31.654 Y38.635 E5.897
G1 X58.934 Y38.635 E6.66959
G1 X59.553 Y38.675 E6.68716
G1 X60.158 Y38.793 E6.70462
G1 X60.3 Y38.762 E6.70873
G1 X61.028 Y38.707 E6.72941
G1 X88.028 Y38.707 E7.49408
G1 X88.647 Y38.747 E7.51164
G1 X89.255 Y38.866 E7.52919
G1 X89.843 Y39.063 E7.54675
G1 X90.401 Y39.333 E7.56431
G1 X90.92 Y39.673 E7.58188
G1 X91.39 Y40.077 E7.59943
G1 X91.804 Y40.538 E7.61698
G1 X92.156 Y41.049 E7.63455
G1 X92.44 Y41.6 E7.65211
G1 X92.649 Y42.183 E7.66965
G1 X92.783 Y42.789 E7.68723
G1 X92.838 Y43.517 E7.7079
G1 X92.838 Y55.517 E8.04776
G1 X92.833 Y55.594 E8.04994
G1 X92.967 Y55.968 E8.06119
G1 X93.101 Y56.574 E8.07877
G1 X93.156 Y57.302 E8.09945
G1 X93.156 Y70.301 E8.46759
G1 X93.136 Y70.742 E8.48009
G1 X93.034 Y71.849 E8.51158
G1 X92.87 Y72.727 E8.53687
G1 X92.567 Y73.79 E8.56818
G1 X92.248 Y74.613 E8.59317
G1 X91.753 Y75.608 E8.62465
G1 X91.285 Y76.364 E8.64983
G1 X90.616 Y77.25 E8.68127
G1 X90.016 Y77.908 E8.70649
G1 X89.198 Y78.653 E8.73783
G1 X88.493 Y79.186 E8.76286
G1 X87.549 Y79.771 E8.79431
G1 X86.748 Y80.169 E8.81964
G1 X85.715 Y80.568 E8.851
G1 X84.868 Y80.809 E8.87594
G1 X83.774 Y81.014 E8.90746
G1 X82.888 Y81.096 E8.93266
G1 X81.783 Y81.096 E8.96396
G1 X80.896 Y81.014 E8.98919
G1 X79.803 Y80.809 E9.02068
G1 X78.957 Y80.568 E9.04559
G1 X77.924 Y80.169 E9.07696
G1 X77.123 Y79.771 E9.10229
G1 X76.179 Y79.186 E9.13374
G1 X75.476 Y78.655 E9.15869
G1 X75.409 Y78.595 E9.16124
G1 X74.6 Y79.259 E9.19088
G1 X74.096 Y79.62 E9.20844
G1 X73.819 Y79.781 E9.21751
G1 X72.777 Y80.339 E9.25099
G1 X72.212 Y80.596 E9.26856
G1 X71.901 Y80.702 E9.27787
G1 X70.776 Y81.043 E9.31116
G1 X70.173 Y81.184 E9.3287
G1 X69.85 Y81.227 E9.33793
G1 X68.676 Y81.342 E9.37134
G1 X68.056 Y81.363 E9.38891
G1 X67.738 Y81.342 E9.39793
G1 X66.565 Y81.227 E9.43131
G1 X65.953 Y81.127 E9.44887
G1 X65.64 Y81.044 E9.45805
G1 X64.514 Y80.703 E9.49136
G1 X63.933 Y80.485 E9.50894
G1 X63.637 Y80.339 E9.51829
G1 X62.595 Y79.781 E9.55176
G1 X62.069 Y79.454 E9.5693
G1 X61.812 Y79.257 E9.57847
G1 X60.903 Y78.51 E9.6118
G1 X60.45 Y78.086 E9.62937
G1 X60.241 Y77.848 E9.63834
G1 X59.494 Y76.939 E9.67166
G1 X59.132 Y76.436 E9.68921
G1 X58.967 Y76.151 E9.69854
G1 X58.411 Y75.11 E9.73196
G1 X58.155 Y74.545 E9.74953
G1 X58.051 Y74.239 E9.75868
G1 X57.932 Y73.845 E9.77034
G1 X31.913 Y73.845 E10.50722
G1 X31.294 Y73.805 E10.52479
G1 X30.686 Y73.686 E10.54234
G1 X30.098 Y73.489 E10.5599
G1 X29.54 Y73.219 E10.57745
G1 X29.021 Y72.879 E10.59503
G1 X28.551 Y72.475 E10.61258
G1 X28.137 Y72.014 E10.63013
G1 X27.785 Y71.503 E10.6477
G1 X27.501 Y70.952 E10.66525
G1 X27.292 Y70.369 E10.68279
G1 X27.158 Y69.763 E10.70037
G1 X27.103 Y69.035 E10.72105
G1 X27.103 Y57.035 E11.0609
G1 X27.105 Y57 E11.06189
G1 X27.033 Y56.799 E11.06794
G1 X26.899 Y56.193 E11.08552
G1 X26.844 Y55.465 E11.10619
G1 X26.844 Y43.445 E11.44661
G1 X26.884 Y42.826 E11.46418
G1 X27.003 Y42.218 E11.48173
G1 X27.2 Y41.63 E11.49929
G1 X27.47 Y41.072 E11.51684
G1 X27.81 Y40.553 E11.53442
G1 X28.006 Y40.325 E11.54293
G0 F1620 X28.214 Y40.083
G0 X28.675 Y39.669
G0 F4320 X28.928 Y39.802
G1 F2400 E11.5695
G1 F1800 X29.434 Y39.474 E11.58657
G1 X29.978 Y39.215 E11.60364
G1 X30.552 Y39.03 E11.62072
G1 X31.146 Y38.923 E11.63781
G1 X31.654 Y38.895 E11.65222
G1 X58.934 Y38.895 E12.42482
G1 X59.536 Y38.935 E12.4419
G1 X60.127 Y39.054 E12.45898
G1 X60.15 Y39.062 E12.45967
G1 X60.52 Y38.995 E12.47032
G1 X61.028 Y38.967 E12.48472
G1 X88.028 Y38.967 E13.24939
G1 X88.63 Y39.007 E13.26648
G1 X89.221 Y39.126 E13.28355
G1 X89.791 Y39.322 E13.30062
G1 X90.33 Y39.592 E13.3177
G1 X90.829 Y39.931 E13.33478
G1 X91.278 Y40.333 E13.35185
G1 X91.671 Y40.791 E13.36894
G1 X91.999 Y41.297 E13.38602
G1 X92.258 Y41.841 E13.40308
G1 X92.443 Y42.415 E13.42016
G1 X92.55 Y43.009 E13.43726
G1 X92.578 Y43.517 E13.45166
G1 X92.578 Y55.517 E13.79152
G1 X92.571 Y55.616 E13.79433
G1 X92.576 Y55.626 E13.79464
G1 X92.761 Y56.2 E13.81172
G1 X92.868 Y56.794 E13.82882
G1 X92.896 Y57.302 E13.84323
G1 X92.896 Y70.301 E14.21137
G1 X92.877 Y70.718 E14.22319
G1 X92.775 Y71.825 E14.25468
G1 X92.62 Y72.655 E14.27859
G1 X92.317 Y73.718 E14.30989
G1 X92.015 Y74.498 E14.33358
G1 X91.52 Y75.493 E14.36506
G1 X91.077 Y76.208 E14.38888
G1 X90.408 Y77.094 E14.42032
G1 X89.841 Y77.716 E14.44416
G1 X89.023 Y78.461 E14.47549
G1 X88.356 Y78.965 E14.49917
G1 X87.412 Y79.55 E14.53062
G1 X86.654 Y79.926 E14.55458
G1 X85.621 Y80.325 E14.58595
G1 X84.82 Y80.553 E14.60953
G1 X83.726 Y80.758 E14.64105
G1 X82.888 Y80.836 E14.66489
G1 X81.783 Y80.836 E14.69618
G1 X80.944 Y80.758 E14.72005
G1 X79.851 Y80.553 E14.75154
G1 X79.051 Y80.325 E14.7751
G1 X78.018 Y79.926 E14.80646
G1 X77.26 Y79.55 E14.83043
G1 X76.316 Y78.965 E14.86188
G1 X75.651 Y78.463 E14.88548
G1 X75.411 Y78.245 E14.89466
G1 X75.345 Y78.311 E14.8973
G1 X74.435 Y79.058 E14.93065
G1 X73.696 Y79.552 E14.95582
G1 X72.654 Y80.11 E14.9893
G1 X71.826 Y80.453 E15.01468
G1 X70.701 Y80.794 E15.04797
G1 X69.825 Y80.968 E15.07326
G1 X68.651 Y81.083 E15.10667
G1 X67.763 Y81.083 E15.13182
G1 X66.59 Y80.968 E15.1652
G1 X65.715 Y80.795 E15.19046
G1 X64.589 Y80.454 E15.22378
G1 X63.76 Y80.11 E15.2492
G1 X62.718 Y79.552 E15.28268
G1 X61.977 Y79.056 E15.30793
G1 X61.068 Y78.309 E15.34125
G1 X60.442 Y77.683 E15.36632
G1 X59.695 Y76.774 E15.39964
G1 X59.197 Y76.029 E15.42502
G1 X58.641 Y74.988 E15.45845
G1 X58.3 Y74.164 E15.4837
G1 X58.124 Y73.585 E15.50084
G1 X31.913 Y73.585 E16.24316
G1 X31.311 Y73.545 E16.26025
G1 X30.72 Y73.426 E16.27732
G1 X30.15 Y73.23 E16.2944
G1 X29.611 Y72.96 E16.31147
G1 X29.112 Y72.621 E16.32855
G1 X28.663 Y72.219 E16.34562
G1 X28.27 Y71.761 E16.36271
G1 X27.942 Y71.255 E16.37979
G1 X27.683 Y70.711 E16.39685
G1 X27.498 Y70.137 E16.41393
G1 X27.391 Y69.543 E16.43103
G1 X27.363 Y69.035 E16.44544
G1 X27.363 Y57.035 E16.78529
G1 X27.368 Y56.966 E16.78725
G1 X27.239 Y56.567 E16.79912
G1 X27.132 Y55.973 E16.81622
G1 X27.104 Y55.465 E16.83063
G1 X27.104 Y43.445 E17.17104
G1 X27.144 Y42.843 E17.18813
G1 X27.263 Y42.252 E17.20521
G1 X27.459 Y41.682 E17.22228
G1 X27.729 Y41.143 E17.23935
G1 X28.068 Y40.644 E17.25643
G1 X28.247 Y40.444 E17.26404
G0 F1620 X28.47 Y40.195
G0 X28.928 Y39.802
G0 F4320 X28.726 Y40.31
G1 F2400 E17.2906
G1 F1800 X29.18 Y39.94 E17.30719
G1 X29.68 Y39.636 E17.32376
G1 X30.217 Y39.403 E17.34034
G1 X30.781 Y39.245 E17.35693
G1 X31.361 Y39.165 E17.37351
G1 X31.654 Y39.155 E17.38181
G1 X58.934 Y39.155 E18.15441
G1 X59.518 Y39.195 E18.17099
G1 X60.091 Y39.314 E18.18756
G1 X60.124 Y39.326 E18.18855
G1 X60.155 Y39.317 E18.18947
G1 X60.735 Y39.237 E18.20605
G1 X61.028 Y39.227 E18.21435
G1 X88.028 Y39.227 E18.97902
G1 X88.612 Y39.267 E18.9956
G1 X89.185 Y39.386 E19.01217
G1 X89.737 Y39.582 E19.02876
G1 X90.257 Y39.851 E19.04534
G1 X90.735 Y40.189 E19.06192
G1 X91.163 Y40.589 E19.07851
G1 X91.533 Y41.043 E19.0951
G1 X91.837 Y41.543 E19.11167
G1 X92.07 Y42.08 E19.12825
G1 X92.228 Y42.644 E19.14484
G1 X92.308 Y43.224 E19.16142
G1 X92.318 Y43.517 E19.16972
G1 X92.318 Y55.517 E19.50958
G1 X92.307 Y55.678 E19.51415
G1 X92.388 Y55.865 E19.51992
G1 X92.546 Y56.429 E19.53651
G1 X92.626 Y57.009 E19.55309
G1 X92.636 Y57.302 E19.56139
G1 X92.636 Y70.301 E19.92954
G1 X92.618 Y70.695 E19.94071
G1 X92.516 Y71.802 E19.97219
G1 X92.37 Y72.584 E19.99472
G1 X92.067 Y73.647 E20.02602
G1 X91.782 Y74.382 E20.04835
G1 X91.287 Y75.377 E20.07982
G1 X90.87 Y76.051 E20.10227
G1 X90.201 Y76.937 E20.13371
G1 X89.666 Y77.524 E20.15621
G1 X88.848 Y78.269 E20.18754
G1 X88.219 Y78.744 E20.20986
G1 X87.275 Y79.329 E20.24132
G1 X86.561 Y79.684 E20.2639
G1 X85.528 Y80.083 E20.29526
G1 X84.772 Y80.298 E20.31752
G1 X83.678 Y80.503 E20.34904
G1 X82.888 Y80.576 E20.37151
G1 X81.783 Y80.576 E20.40281
G1 X80.992 Y80.502 E20.42531
G1 X79.899 Y80.297 E20.4568
G1 X79.144 Y80.083 E20.47903
G1 X78.111 Y79.684 E20.51039
G1 X77.397 Y79.329 E20.53297
G1 X76.453 Y78.744 E20.56442
G1 X75.826 Y78.27 E20.58668
G1 X75.404 Y77.886 E20.60284
G1 X75.18 Y78.11 E20.61181
G1 X74.27 Y78.857 E20.64516
G1 X73.573 Y79.323 E20.6689
G1 X72.531 Y79.881 E20.70238
G1 X71.75 Y80.205 E20.72632
G1 X70.625 Y80.546 E20.75962
G1 X69.799 Y80.71 E20.78347
G1 X68.625 Y80.825 E20.81687
G1 X67.788 Y80.825 E20.84058
G1 X66.615 Y80.71 E20.87396
G1 X65.791 Y80.546 E20.89775
G1 X64.665 Y80.205 E20.93107
G1 X63.883 Y79.881 E20.95505
G1 X62.841 Y79.323 E20.98852
G1 X62.142 Y78.855 E21.01234
G1 X61.233 Y78.108 E21.04567
G1 X60.643 Y77.518 E21.0693
G1 X59.896 Y76.609 E21.10262
G1 X59.426 Y75.906 E21.12657
G1 X58.87 Y74.865 E21.15999
G1 X58.548 Y74.088 E21.18381
G1 X58.317 Y73.325 E21.20639
G1 X31.913 Y73.325 E21.95418
G1 X31.329 Y73.285 E21.97075
G1 X30.756 Y73.166 E21.98733
G1 X30.204 Y72.97 E22.00392
G1 X29.684 Y72.701 E22.0205
G1 X29.206 Y72.363 E22.03708
G1 X28.778 Y71.963 E22.05367
G1 X28.408 Y71.509 E22.07026
G1 X28.104 Y71.009 E22.08683
G1 X27.871 Y70.472 E22.10341
G1 X27.713 Y69.908 E22.12
G1 X27.633 Y69.328 E22.13658
G1 X27.623 Y69.035 E22.14488
G1 X27.623 Y57.035 E22.48473
G1 X27.629 Y56.942 E22.48737
G1 X27.612 Y56.902 E22.4886
G1 X27.454 Y56.338 E22.50519
G1 X27.374 Y55.758 E22.52177
G1 X27.364 Y55.465 E22.53008
G1 X27.364 Y43.445 E22.87049
G1 X27.404 Y42.861 E22.88707
G1 X27.523 Y42.288 E22.90365
G1 X27.719 Y41.736 E22.92024
G1 X27.988 Y41.216 E22.93682
G1 X28.123 Y41.026 E22.94342
G0 F1620 X28.326 Y40.738
G0 X28.726 Y40.31
G0 F4320 X28.981 Y40.429
G1 F2400 E22.96998
G1 F1800 X29.431 Y40.084 E22.98604
G1 X29.925 Y39.805 E23.00211
G1 X30.453 Y39.598 E23.01817
G1 X31.006 Y39.467 E23.03427
G1 X31.654 Y39.415 E23.05268
G1 X58.934 Y39.415 E23.82527
G1 X59.5 Y39.455 E23.84134
G1 X60.055 Y39.574 E23.85742
G1 X60.124 Y39.6 E23.85951
G1 X60.38 Y39.539 E23.86696
G1 X61.028 Y39.487 E23.88537
G1 X88.028 Y39.487 E24.65004
G1 X88.594 Y39.527 E24.66611
G1 X89.149 Y39.646 E24.68218
G1 X89.681 Y39.842 E24.69824
G1 X90.181 Y40.11 E24.71431
G1 X90.638 Y40.447 E24.73039
G1 X91.044 Y40.844 E24.74647
G1 X91.389 Y41.294 E24.76253
G1 X91.668 Y41.788 E24.7786
G1 X91.875 Y42.316 E24.79466
G1 X92.006 Y42.869 E24.81075
G1 X92.058 Y43.517 E24.82916
G1 X92.058 Y55.517 E25.16902
G1 X92.044 Y55.72 E25.17478
G1 X92.193 Y56.101 E25.18636
G1 X92.324 Y56.654 E25.20246
G1 X92.376 Y57.302 E25.22087
G1 X92.376 Y70.301 E25.58902
G1 X92.359 Y70.671 E25.59951
G1 X92.257 Y71.778 E25.63099
G1 X92.12 Y72.513 E25.65216
G1 X91.817 Y73.576 E25.68347
G1 X91.549 Y74.266 E25.70443
G1 X91.054 Y75.261 E25.73591
G1 X90.662 Y75.894 E25.75699
G1 X89.993 Y76.78 E25.78843
G1 X89.491 Y77.331 E25.80954
G1 X88.673 Y78.076 E25.84088
G1 X88.082 Y78.523 E25.86187
G1 X87.138 Y79.108 E25.89332
G1 X86.467 Y79.441 E25.91453
G1 X85.434 Y79.84 E25.94589
G1 X84.724 Y80.042 E25.9668
G1 X83.63 Y80.247 E25.99832
G1 X82.888 Y80.316 E26.01943
G1 X81.783 Y80.316 E26.05072
G1 X81.04 Y80.247 E26.07186
G1 X79.947 Y80.042 E26.10335
G1 X79.238 Y79.84 E26.12423
G1 X78.205 Y79.441 E26.15559
G1 X77.534 Y79.108 E26.17681
G1 X76.59 Y78.523 E26.20826
G1 X76.001 Y78.078 E26.22916
G1 X75.396 Y77.528 E26.25232
G1 X75.015 Y77.909 E26.26758
G1 X74.105 Y78.656 E26.30092
G1 X73.45 Y79.094 E26.32324
G1 X72.408 Y79.652 E26.35672
G1 X71.675 Y79.956 E26.37919
G1 X70.55 Y80.297 E26.41248
G1 X69.774 Y80.451 E26.43489
G1 X68.6 Y80.566 E26.4683
G1 X67.814 Y80.566 E26.49056
G1 X66.641 Y80.451 E26.52394
G1 X65.866 Y80.297 E26.54631
G1 X64.74 Y79.956 E26.57963
G1 X64.006 Y79.652 E26.60213
G1 X62.964 Y79.094 E26.63561
G1 X62.307 Y78.655 E26.65799
G1 X61.398 Y77.908 E26.69131
G1 X60.843 Y77.353 E26.71354
G1 X60.096 Y76.444 E26.74686
G1 X59.655 Y75.784 E26.76934
G1 X59.099 Y74.743 E26.80276
G1 X58.797 Y74.013 E26.82514
G1 X58.51 Y73.065 E26.85319
G1 X31.913 Y73.065 E27.60644
G1 X31.347 Y73.025 E27.62251
G1 X30.792 Y72.906 E27.63859
G1 X30.26 Y72.71 E27.65464
G1 X29.76 Y72.442 E27.67071
G1 X29.303 Y72.105 E27.68679
G1 X28.897 Y71.708 E27.70287
G1 X28.552 Y71.258 E27.71893
G1 X28.273 Y70.764 E27.735
G1 X28.066 Y70.236 E27.75106
G1 X27.935 Y69.683 E27.76716
G1 X27.883 Y69.035 E27.78557
G1 X27.883 Y57.035 E28.12542
