;FLAVOR:Marlin
;TIME:9763
;Filament used: 6.1351m
;Layer height: 0.21875
;Generated with Cura_SteamEngine 3.3.1
M190 S65
M104 S205
M109 S205
M82 ;absolute extrusion mode
G21;(metric values)
G90;(absolute positioning)
M82;(set extruder to absolute mode)
M107;(start with the fan off)
G28;(Home the printer)
G92 E0;(Reset the extruder to 0)
G0 Z5 E5 F500;(Move up and prime the nozzle)
G0 X-1 Z0;(Move outside the printable area)
G1 Y60 E8 F500;(Draw a priming/wiping line to the rear)
G1 X-1;(Move a little closer to the print area)
G1 Y10 E16 F500;(draw more priming/wiping)
G1 E15 F250;(Small retract)
G92 E0;(Zero the extruder)
G92 E0
G1 F2400 E-2.5
;LAYER_COUNT:92
;LAYER:0
M107
G0 F4320 X73.42 Y56.27 Z0.262
;TYPE:SKIRT
G1 F2400 E0
G1 F1800 X72.924 Y57.197 E0.02978
G1 X72.589 Y57.738 E0.0478
G1 X72.372 Y58.023 E0.05794
G1 X71.378 Y59.233 E0.10229
G1 X70.943 Y59.699 E0.12034
G1 X70.822 Y59.806 E0.12492
G1 X71.374 Y60.259 E0.14514
G1 X71.839 Y60.693 E0.16316
G1 X72.075 Y60.96 E0.17325
G1 X73.07 Y62.172 E0.21766
G1 X73.42 Y62.657 E0.2346
G1 X73.42 Y57.208 E0.38892
G0 F1620 X73.42 Y56.27
G0 F4320 X73.436 Y55.689
G1 F2400 E0.41548
G1 F1800 X72.695 Y57.074 E0.45997
G1 X72.368 Y57.601 E0.47753
G1 X72.171 Y57.858 E0.48671
G1 X71.177 Y59.068 E0.53105
G1 X70.753 Y59.521 E0.54863
G1 X70.514 Y59.731 E0.55764
G1 X70.418 Y59.81 E0.56116
G1 X71.209 Y60.46 E0.59015
G1 X71.662 Y60.884 E0.60773
G1 X71.874 Y61.125 E0.61682
G1 X72.869 Y62.337 E0.66123
G1 X73.23 Y62.841 E0.67878
G1 X73.392 Y63.119 E0.6879
G1 X73.68 Y63.657 E0.70518
G1 X73.68 Y55.459 E0.93735
G0 F1620 X73.68 Y55.13
G0 X73.581 Y55.395
G0 X73.436 Y55.689
G0 F4320 X73.207 Y55.566
G1 F2400 E0.96392
G1 F1800 X72.466 Y56.951 E1.00841
G1 X71.97 Y57.693 E1.03368
G1 X70.976 Y58.903 E1.07803
G1 X70.348 Y59.531 E1.10318
G1 X70.008 Y59.81 E1.11564
G1 X71.044 Y60.661 E1.15361
G1 X71.673 Y61.29 E1.1788
G1 X72.668 Y62.502 E1.22321
G1 X73.162 Y63.242 E1.24841
G1 X73.904 Y64.628 E1.29294
G1 X73.94 Y64.715 E1.2956
G1 X73.94 Y53.451 E1.61461
G1 X73.562 Y54.698 E1.65151
G0 F1620 X73.55 Y54.739
G0 X73.207 Y55.566
G0 F4320 X72.978 Y55.444
G1 F2400 E1.67808
G1 F1800 X72.237 Y56.829 E1.72256
G1 X71.769 Y57.528 E1.74639
G1 X70.775 Y58.738 E1.79074
G1 X70.183 Y59.33 E1.81445
G1 X69.591 Y59.816 E1.83614
G1 X69.67 Y59.869 E1.83883
G1 X70.879 Y60.862 E1.88314
G1 X71.472 Y61.455 E1.90689
G1 X72.467 Y62.667 E1.9513
G1 X72.933 Y63.364 E1.97505
G1 X73.675 Y64.75 E2.01957
G1 X73.92 Y65.342 E2.03772
G1 X74.07 Y65.166 E2.04427
G1 X74.2 Y64.955 E2.05129
G1 X74.2 Y33.375 E2.94566
G1 X74.093 Y33.201 E2.95145
G1 X74.093 Y50.358 E3.43735
G1 X74.072 Y50.779 E3.44929
G1 X73.918 Y52.342 E3.49377
G1 X73.755 Y53.165 E3.51753
G1 X73.328 Y54.575 E3.55925
G0 F1620 X73.301 Y54.664
G0 X72.978 Y55.444
G0 F4320 X72.748 Y55.321
G1 F2400 E3.58582
G1 F1800 X72.007 Y56.706 E3.6303
G1 X71.568 Y57.363 E3.65268
G1 X70.574 Y58.573 E3.69703
G1 X70.018 Y59.129 E3.7193
G1 X69.156 Y59.837 E3.75089
G1 X69.505 Y60.07 E3.76278
G1 X70.714 Y61.063 E3.80709
G1 X71.271 Y61.62 E3.82939
G1 X72.266 Y62.832 E3.87381
G1 X72.704 Y63.487 E3.89612
G1 X73.446 Y64.873 E3.94064
G1 X73.75 Y65.605 E3.96309
G1 X73.825 Y65.853 E3.97043
G1 X74.284 Y65.316 E3.99044
G1 X74.46 Y65.029 E3.99997
G1 X74.46 Y33.301 E4.89854
G1 X74.284 Y33.014 E4.90808
G1 X73.833 Y32.486 E4.92774
G1 X73.833 Y50.358 E5.43389
G1 X73.814 Y50.753 E5.44509
G1 X73.66 Y52.316 E5.48957
G1 X73.506 Y53.089 E5.5119
G1 X73.094 Y54.45 E5.55217
G0 F1620 X73.052 Y54.588
G0 X72.748 Y55.321
G0 F4320 X72.519 Y55.198
G1 F2400 E5.57873
G1 F1800 X71.778 Y56.583 E5.62322
G1 X71.367 Y57.198 E5.64417
G1 X70.373 Y58.408 E5.68852
G1 X69.853 Y58.928 E5.70934
G1 X68.722 Y59.858 E5.75081
G1 X68.724 Y59.859 E5.75088
G1 X69.34 Y60.271 E5.77187
G1 X70.549 Y61.264 E5.81617
G1 X71.07 Y61.785 E5.83704
G1 X72.065 Y62.997 E5.88145
G1 X72.475 Y63.61 E5.90234
G1 X73.217 Y64.996 E5.94686
G1 X73.501 Y65.681 E5.96786
G1 X73.714 Y66.383 E5.98864
G1 X74.498 Y65.465 E6.02283
G1 X74.72 Y65.103 E6.03486
G1 X74.72 Y33.227 E6.93762
G1 X74.495 Y32.861 E6.94978
G1 X73.713 Y31.946 E6.98387
G1 X73.536 Y31.794 E6.99048
G1 X73.555 Y31.983 E6.99586
G1 X73.573 Y32.356 E7.00643
G1 X73.573 Y50.358 E7.51627
G1 X73.555 Y50.728 E7.52676
G1 X73.401 Y52.291 E7.57124
G1 X73.257 Y53.014 E7.59212
G1 X72.86 Y54.325 E7.63091
G0 F1620 X72.803 Y54.513
G0 X72.519 Y55.198
G0 F4320 X72.29 Y55.076
G1 F2400 E7.65748
G1 F1800 X71.549 Y56.461 E7.70196
G1 X71.166 Y57.033 E7.72146
G1 X70.172 Y58.243 E7.76581
G1 X69.688 Y58.727 E7.78519
G1 X68.477 Y59.722 E7.82958
G1 X68.227 Y59.889 E7.8381
G1 X68.602 Y60.089 E7.85013
G1 X69.175 Y60.472 E7.86965
G1 X70.384 Y61.465 E7.91396
G1 X70.869 Y61.95 E7.93339
G1 X71.864 Y63.162 E7.9778
G1 X72.245 Y63.732 E7.99721
G1 X72.987 Y65.118 E8.04174
G1 X73.252 Y65.756 E8.0613
G1 X73.581 Y66.84 E8.09339
G1 X73.896 Y66.57 E8.10514
G1 X74.706 Y65.623 E8.14043
G1 X74.98 Y65.175 E8.1553
G1 X74.98 Y33.155 E9.06214
G1 X74.706 Y32.707 E9.07701
G1 X73.894 Y31.758 E9.11238
G1 X73.213 Y31.176 E9.13775
G1 X73.296 Y32.009 E9.16146
G1 X73.313 Y32.356 E9.1713
G1 X73.313 Y50.358 E9.68114
G1 X73.296 Y50.702 E9.69089
G1 X73.142 Y52.265 E9.73537
G1 X73.008 Y52.938 E9.75481
G1 X72.625 Y54.201 E9.79218
G0 F1620 X72.554 Y54.437
G0 X72.29 Y55.076
G0 F4320 X72.061 Y54.953
G1 F2400 E9.81875
G1 F1800 X71.32 Y56.338 E9.86323
G1 X70.965 Y56.868 E9.8813
G1 X69.971 Y58.078 E9.92565
G1 X69.523 Y58.526 E9.94359
G1 X68.312 Y59.521 E9.98798
G1 X67.781 Y59.876 E10.00607
G1 X67.717 Y59.91 E10.00812
G1 X68.479 Y60.318 E10.0326
G1 X69.01 Y60.673 E10.05069
G1 X70.219 Y61.666 E10.095
G1 X70.668 Y62.115 E10.11298
G1 X71.663 Y63.327 E10.15739
G1 X72.016 Y63.855 E10.17538
G1 X72.758 Y65.241 E10.21991
G1 X73.003 Y65.832 E10.23803
G1 X73.447 Y67.296 E10.28135
G1 X74.081 Y66.755 E10.30496
G1 X74.917 Y65.776 E10.34142
G1 X75.24 Y65.249 E10.35892
G1 X75.24 Y33.081 E11.26995
G1 X74.917 Y32.554 E11.28746
G1 X74.079 Y31.573 E11.324
G1 X73.102 Y30.739 E11.36038
G1 X72.896 Y30.612 E11.36723
G1 X73.037 Y32.035 E11.40773
G1 X73.053 Y32.356 E11.41683
G1 X73.053 Y50.358 E11.92667
G1 X73.037 Y50.677 E11.93571
G1 X72.883 Y52.24 E11.98019
G1 X72.759 Y52.863 E11.99818
G1 X72.391 Y54.076 E12.03408
G0 F1620 X72.305 Y54.362
G0 X72.061 Y54.953
G0 F4320 X71.831 Y54.831
G1 F2400 E12.06065
G1 F1800 X71.09 Y56.216 E12.10513
G1 X70.764 Y56.703 E12.12173
G1 X69.77 Y57.913 E12.16608
G1 X69.358 Y58.325 E12.18258
G1 X68.147 Y59.32 E12.22697
G1 X67.659 Y59.647 E12.2436
G1 X67.166 Y59.91 E12.25943
G1 X68.357 Y60.547 E12.29768
G1 X68.845 Y60.873 E12.3143
G1 X70.054 Y61.866 E12.35861
G1 X70.467 Y62.28 E12.37517
G1 X71.462 Y63.492 E12.41958
G1 X71.787 Y63.978 E12.43614
G1 X72.529 Y65.364 E12.48066
G1 X72.754 Y65.907 E12.49731
G1 X73.208 Y67.404 E12.54161
G1 X73.283 Y67.779 E12.55244
G1 X74.265 Y66.94 E12.58902
G1 X75.122 Y65.936 E12.62641
G1 X75.5 Y65.321 E12.64685
G1 X75.5 Y33.009 E13.56196
G1 X75.123 Y32.394 E13.58239
G1 X74.264 Y31.389 E13.61983
G1 X73.256 Y30.528 E13.65738
G1 X72.541 Y30.09 E13.68112
G1 X72.623 Y30.5 E13.69297
G1 X72.778 Y32.061 E13.73739
G1 X72.793 Y32.356 E13.74576
G1 X72.793 Y50.358 E14.25559
G1 X72.779 Y50.651 E14.2639
G1 X72.625 Y52.214 E14.30838
G1 X72.511 Y52.788 E14.32495
G1 X72.158 Y53.953 E14.35943
G0 F1620 X72.057 Y54.287
G0 X71.831 Y54.831
G0 F4320 X71.602 Y54.708
G1 F2400 E14.38599
G1 F1800 X70.861 Y56.093 E14.43048
G1 X70.563 Y56.538 E14.44565
G1 X69.569 Y57.748 E14.49
G1 X69.193 Y58.124 E14.50506
G1 X67.982 Y59.119 E14.54944
G1 X67.536 Y59.418 E14.56465
G1 X66.585 Y59.926 E14.59519
G1 X66.848 Y60.035 E14.60325
G1 X68.234 Y60.776 E14.64776
G1 X68.68 Y61.074 E14.66295
G1 X69.889 Y62.067 E14.70726
G1 X70.266 Y62.445 E14.72238
G1 X71.261 Y63.657 E14.76679
G1 X71.558 Y64.101 E14.78192
G1 X72.3 Y65.487 E14.82644
G1 X72.506 Y65.983 E14.84165
G1 X72.96 Y67.48 E14.88596
G1 X73.064 Y68.006 E14.90114
G1 X73.084 Y68.212 E14.907
G1 X73.408 Y68.013 E14.91777
G1 X74.45 Y67.124 E14.95656
G1 X75.336 Y66.085 E14.99524
G1 X75.76 Y65.395 E15.01817
G1 X75.76 Y32.935 E15.93747
G1 X75.336 Y32.245 E15.96041
G1 X74.448 Y31.205 E15.99914
G1 X73.409 Y30.317 E16.03785
G1 X72.116 Y29.525 E16.08079
G1 X72.261 Y30.003 E16.09493
G1 X72.365 Y30.525 E16.11001
G1 X72.52 Y32.086 E16.15444
G1 X72.533 Y32.356 E16.16209
G1 X72.533 Y50.358 E16.67193
G1 X72.52 Y50.626 E16.67952
G1 X72.366 Y52.189 E16.724
G1 X72.262 Y52.712 E16.73911
G1 X71.923 Y53.829 E16.77217
G0 F1620 X71.808 Y54.211
G0 X71.602 Y54.708
G0 F4320 X71.373 Y54.585
G1 F2400 E16.79873
G1 F1800 X70.632 Y55.97 E16.84322
G1 X70.363 Y56.373 E16.85694
G1 X69.369 Y57.583 E16.90129
G1 X69.028 Y57.923 E16.91493
G1 X67.817 Y58.918 E16.95931
G1 X67.414 Y59.188 E16.97305
G1 X66.028 Y59.929 E17.01756
G1 X65.924 Y59.972 E17.02075
G1 X66.277 Y60.079 E17.0312
G1 X66.726 Y60.265 E17.04496
G1 X68.112 Y61.006 E17.08947
G1 X68.515 Y61.275 E17.10319
G1 X69.724 Y62.268 E17.1475
G1 X70.065 Y62.61 E17.16118
G1 X71.06 Y63.822 E17.20559
G1 X71.329 Y64.223 E17.21927
G1 X72.071 Y65.609 E17.26379
G1 X72.257 Y66.058 E17.27755
G1 X72.711 Y67.555 E17.32186
G1 X72.805 Y68.031 E17.3356
G1 X72.866 Y68.65 E17.35321
G1 X73.566 Y68.221 E17.37647
G1 X74.634 Y67.308 E17.41626
G1 X75.548 Y66.239 E17.45609
G1 X76.02 Y65.469 E17.48167
G1 X76.02 Y32.861 E18.40516
G1 X75.55 Y32.095 E18.43061
G1 X74.629 Y31.017 E18.47077
G1 X73.565 Y30.108 E18.5104
G1 X72.199 Y29.271 E18.55577
G1 X71.843 Y29.006 E18.56834
G1 X71.612 Y28.758 E18.57794
G1 X72.012 Y30.079 E18.61703
G1 X72.106 Y30.551 E18.63066
G1 X72.261 Y32.112 E18.67509
G1 X72.273 Y32.356 E18.682
G1 X72.273 Y50.358 E19.19184
G1 X72.261 Y50.6 E19.1987
G1 X72.107 Y52.163 E19.24318
G1 X72.013 Y52.637 E19.25687
G1 X71.69 Y53.704 E19.28844
G0 F1620 X71.559 Y54.136
G0 X71.373 Y54.585
G0 F4320 X71.144 Y54.463
G1 F2400 E19.315
G1 F1800 X70.403 Y55.848 E19.35949
G1 X70.162 Y56.208 E19.37176
G1 X69.168 Y57.418 E19.41611
G1 X68.863 Y57.723 E19.42832
G1 X67.652 Y58.718 E19.47271
G1 X67.291 Y58.959 E19.48501
G1 X65.905 Y59.7 E19.52952
G1 X65.505 Y59.866 E19.54178
G1 X65.091 Y59.992 E19.55404
G1 X66.202 Y60.328 E19.58691
G1 X66.603 Y60.494 E19.5992
G1 X67.989 Y61.235 E19.64371
G1 X68.35 Y61.476 E19.656
G1 X69.559 Y62.469 E19.70031
G1 X69.864 Y62.775 E19.71255
G1 X70.859 Y63.987 E19.75696
G1 X71.099 Y64.346 E19.76919
G1 X71.841 Y65.732 E19.81371
G1 X72.008 Y66.134 E19.82604
G1 X72.462 Y67.631 E19.87035
G1 X72.546 Y68.057 E19.88264
G1 X72.647 Y69.09 E19.91204
G1 X73.716 Y68.435 E19.94754
G1 X74.822 Y67.49 E19.98874
G1 X75.755 Y66.396 E20.02946
G1 X76.28 Y65.541 E20.05788
G1 X76.28 Y32.789 E20.98545
G1 X75.758 Y31.937 E21.01375
G1 X74.814 Y30.833 E21.05488
G1 X73.718 Y29.897 E21.0957
G1 X72.335 Y29.049 E21.14165
G1 X72 Y28.797 E21.15352
G1 X71.718 Y28.485 E21.16543
G1 X71.5 Y28.126 E21.17733
G1 X71.354 Y27.732 E21.18923
G1 X71.28 Y27.165 E21.20542
G1 X71.28 Y24.165 E21.29038
G1 X71.32 Y23.747 E21.30228
G1 X71.438 Y23.344 E21.31417
G1 X71.631 Y22.971 E21.32606
G1 X71.89 Y22.64 E21.33796
G1 X72.207 Y22.365 E21.34985
G1 X72.571 Y22.155 E21.36175
G1 X72.968 Y22.018 E21.37365
G1 X73.384 Y21.958 E21.38555
G1 X73.707 Y21.966 E21.3947
G1 X75.268 Y22.12 E21.43912
G1 X75.692 Y22.204 E21.45136
G1 X77.191 Y22.658 E21.49572
G1 X77.592 Y22.824 E21.50801
G1 X78.978 Y23.565 E21.55252
G1 X79.339 Y23.806 E21.56482
G1 X80.548 Y24.799 E21.60913
G1 X80.853 Y25.104 E21.62134
G1 X81.848 Y26.315 E21.66573
G1 X82.088 Y26.675 E21.67798
G1 X82.83 Y28.061 E21.72251
G1 X82.997 Y28.463 E21.73484
G1 X83.451 Y29.961 E21.77917
G1 X83.535 Y30.385 E21.79141
G1 X83.689 Y31.947 E21.83586
G1 X83.7 Y32.164 E21.84201
G1 X83.7 Y66.087 E22.80275
G1 X83.69 Y66.294 E22.80862
G1 X83.536 Y67.934 E22.85527
G1 X83.451 Y68.368 E22.86779
G1 X82.999 Y69.859 E22.91192
G1 X83.859 Y69.514 E22.93816
G1 X84.216 Y69.405 E22.94873
G1 X86.207 Y68.975 E23.00642
G1 X86.581 Y68.927 E23.0171
G1 X88.613 Y68.841 E23.0747
G1 X88.986 Y68.857 E23.08527
G1 X91.007 Y69.115 E23.14297
G1 X91.374 Y69.194 E23.1536
G1 X93.317 Y69.789 E23.21115
G1 X93.665 Y69.929 E23.22178
G1 X95.486 Y70.847 E23.27953
G1 X95.806 Y71.044 E23.29017
G1 X97.442 Y72.255 E23.34782
G1 X97.722 Y72.501 E23.35838
G1 X99.128 Y73.967 E23.4159
G1 X99.364 Y74.26 E23.42656
G1 X100.506 Y75.95 E23.48432
G1 X100.689 Y76.276 E23.49491
G1 X101.526 Y78.127 E23.55244
G1 X101.651 Y78.481 E23.56308
G1 X102.164 Y80.452 E23.62076
G1 X102.227 Y80.822 E23.63139
G1 X102.399 Y82.849 E23.689
G1 X102.399 Y83.222 E23.69956
G1 X102.227 Y85.253 E23.75729
G1 X102.164 Y85.623 E23.76792
G1 X101.652 Y87.591 E23.82551
G1 X101.527 Y87.945 E23.83614
G1 X100.689 Y89.799 E23.89376
G1 X100.506 Y90.127 E23.9044
G1 X99.364 Y91.816 E23.96214
G1 X99.129 Y92.107 E23.97274
G1 X97.723 Y93.574 E24.03028
G1 X97.441 Y93.822 E24.04092
G1 X95.805 Y95.032 E24.09855
G1 X95.487 Y95.228 E24.10913
G1 X93.666 Y96.147 E24.16689
G1 X93.317 Y96.287 E24.17754
G1 X91.374 Y96.882 E24.23509
G1 X91.007 Y96.961 E24.24573
G1 X88.986 Y97.219 E24.30343
G1 X88.613 Y97.235 E24.314
G1 X86.581 Y97.149 E24.3716
G1 X86.207 Y97.101 E24.38228
G1 X84.216 Y96.671 E24.43997
G1 X83.859 Y96.562 E24.45054
G1 X81.969 Y95.803 E24.50822
G1 X81.634 Y95.634 E24.51885
G1 X79.903 Y94.568 E24.57642
G1 X79.601 Y94.344 E24.58707
G1 X78.075 Y93 E24.64466
G1 X77.817 Y92.731 E24.65522
G1 X76.535 Y91.145 E24.71297
G1 X76.324 Y90.833 E24.72364
G1 X75.334 Y89.059 E24.78117
G1 X75.18 Y88.718 E24.79177
G1 X74.501 Y86.796 E24.8495
G1 X74.407 Y86.434 E24.86009
G1 X74.063 Y84.429 E24.91771
G1 X74.031 Y84.055 E24.92834
G1 X74.031 Y82.021 E24.98594
G1 X74.063 Y81.647 E24.99657
G1 X74.407 Y79.642 E25.05419
G1 X74.501 Y79.28 E25.06478
G1 X75.18 Y77.358 E25.12251
G1 X75.334 Y77.017 E25.1331
G1 X75.86 Y76.075 E25.16366
G1 X75.692 Y76.126 E25.16863
G1 X75.268 Y76.21 E25.18087
G1 X73.707 Y76.364 E25.2253
G1 X73.287 Y76.366 E25.23719
G1 X72.874 Y76.288 E25.2491
G1 X72.71 Y76.223 E25.25409
G1 X72.71 Y87.834 E25.58293
G1 X72.699 Y88.049 E25.58902
G1 X72.546 Y89.612 E25.6335
G1 X72.462 Y90.038 E25.6458
G1 X72.008 Y91.537 E25.69016
G1 X71.842 Y91.939 E25.70247
G1 X71.101 Y93.324 E25.74696
G1 X70.86 Y93.684 E25.75923
G1 X69.866 Y94.894 E25.80358
G1 X69.561 Y95.199 E25.81579
G1 X68.35 Y96.194 E25.86018
G1 X67.989 Y96.435 E25.87247
G1 X66.603 Y97.176 E25.91699
G1 X66.202 Y97.342 E25.92928
G1 X64.703 Y97.796 E25.97363
G1 X64.279 Y97.88 E25.98588
G1 X62.716 Y98.034 E26.03036
G1 X62.499 Y98.045 E26.03651
G1 X28.501 Y98.045 E26.99937
G1 X28.284 Y98.034 E27.00552
G1 X26.722 Y97.88 E27.04997
G1 X26.298 Y97.796 E27.06221
G1 X24.799 Y97.342 E27.10657
G1 X24.398 Y97.176 E27.11886
G1 X23.012 Y96.435 E27.16337
G1 X22.651 Y96.194 E27.17567
G1 X21.44 Y95.199 E27.22005
G1 X21.135 Y94.894 E27.23227
G1 X20.141 Y93.684 E27.27662
G1 X19.9 Y93.324 E27.28889
G1 X19.159 Y91.939 E27.33337
G1 X18.993 Y91.537 E27.34569
G1 X18.539 Y90.038 E27.39005
G1 X18.455 Y89.614 E27.40229
G1 X18.301 Y88.053 E27.44671
G1 X18.29 Y87.836 E27.45287
G1 X18.29 Y69.836 E27.96265
G1 X18.301 Y69.619 E27.9688
G1 X18.455 Y68.055 E28.01331
G1 X18.539 Y67.631 E28.02555
G1 X18.993 Y66.134 E28.06985
G1 X19.16 Y65.732 E28.08218
G1 X19.902 Y64.346 E28.12671
G1 X20.142 Y63.987 E28.13894
G1 X21.135 Y62.777 E28.18327
G1 X21.44 Y62.471 E28.1955
G1 X22.651 Y61.476 E28.23989
G1 X23.012 Y61.235 E28.25218
G1 X24.398 Y60.494 E28.29669
G1 X24.799 Y60.328 E28.30899
G1 X25.211 Y60.203 E28.32118
G1 X24.1 Y59.866 E28.35406
G1 X23.7 Y59.7 E28.36632
G1 X22.314 Y58.959 E28.41083
G1 X21.953 Y58.718 E28.42313
G1 X20.742 Y57.723 E28.46752
G1 X20.437 Y57.418 E28.47973
G1 X19.443 Y56.208 E28.52408
G1 X19.202 Y55.848 E28.53635
G1 X18.461 Y54.463 E28.58084
G1 X18.295 Y54.061 E28.59315
G1 X17.841 Y52.562 E28.63751
G1 X17.757 Y52.137 E28.64978
G1 X17.604 Y50.576 E28.6942
G1 X17.593 Y50.36 E28.70033
G1 X17.593 Y32.36 E29.2101
G1 X17.603 Y32.145 E29.2162
G1 X17.756 Y30.581 E29.26071
G1 X17.841 Y30.155 E29.27301
G1 X18.295 Y28.657 E29.31734
G1 X18.462 Y28.255 E29.32967
G1 X19.204 Y26.869 E29.37419
G1 X19.445 Y26.509 E29.38646
G1 X20.438 Y25.301 E29.43075
G1 X20.742 Y24.996 E29.44294
G1 X21.953 Y24.001 E29.48733
G1 X22.313 Y23.761 E29.49959
G1 X23.699 Y23.019 E29.54411
G1 X24.101 Y22.852 E29.55644
G1 X25.6 Y22.398 E29.6008
