;FLAVOR:Marlin
;TIME:8182
;Filament used: 6.97596m
;Layer height: 0.2625
;Generated with Cura_SteamEngine 3.3.1
M190 S65
M104 S205
M109 S205
M82 ;absolute extrusion mode
G21;(metric values)
G90;(absolute positioning)
M82;(set extruder to absolute mode)
M107;(start with the fan off)
G28;(Home the printer)
G92 E0;(Reset the extruder to 0)
G0 Z5 E5 F500;(Move up and prime the nozzle)
G0 X-1 Z0;(Move outside the printable area)
G1 Y60 E8 F500;(Draw a priming/wiping line to the rear)
G1 X-1;(Move a little closer to the print area)
G1 Y10 E16 F500;(draw more priming/wiping)
G1 E15 F250;(Small retract)
G92 E0;(Zero the extruder)
G92 E0
G1 F2400 E-2.5
;LAYER_COUNT:75
;LAYER:0
M107
G0 F4320 X36.057 Y23.058 Z0.262
;TYPE:SKIRT
G1 F2400 E0
G1 F1800 X36.398 Y22.521 E0.01802
G1 X36.804 Y22.03 E0.03606
G1 X37.267 Y21.594 E0.05407
G1 X37.782 Y21.22 E0.0721
G1 X38.34 Y20.913 E0.09013
G1 X38.932 Y20.679 E0.10816
G1 X39.548 Y20.52 E0.12618
G1 X40.18 Y20.44 E0.14422
G1 X40.5 Y20.43 E0.15329
G1 X79.5 Y20.43 E1.25781
G1 X80.135 Y20.47 E1.27583
G1 X80.761 Y20.589 E1.29387
G1 X81.366 Y20.786 E1.31189
G1 X81.942 Y21.057 E1.32992
G1 X82.479 Y21.398 E1.34794
G1 X82.97 Y21.804 E1.36598
G1 X83.406 Y22.267 E1.38399
G1 X83.78 Y22.782 E1.40202
G1 X84.087 Y23.34 E1.42005
G1 X84.321 Y23.932 E1.43808
G1 X84.48 Y24.548 E1.4561
G1 X84.56 Y25.18 E1.47414
G1 X84.57 Y25.5 E1.48321
G1 X84.57 Y94.5 E3.43736
G1 X84.53 Y95.135 E3.45538
G1 X84.411 Y95.761 E3.47342
G1 X84.214 Y96.366 E3.49144
G1 X83.943 Y96.942 E3.50947
G1 X83.602 Y97.479 E3.52749
G1 X83.196 Y97.97 E3.54553
G1 X82.733 Y98.406 E3.56354
G1 X82.218 Y98.78 E3.58157
G1 X81.66 Y99.087 E3.59961
G1 X81.068 Y99.321 E3.61763
G1 X80.452 Y99.48 E3.63565
G1 X79.82 Y99.56 E3.65369
G1 X79.5 Y99.57 E3.66276
G1 X40.5 Y99.57 E4.76728
G1 X39.865 Y99.53 E4.7853
G1 X39.239 Y99.411 E4.80335
G1 X38.634 Y99.214 E4.82137
G1 X38.058 Y98.943 E4.83939
G1 X37.521 Y98.602 E4.85741
G1 X37.03 Y98.196 E4.87545
G1 X36.594 Y97.733 E4.89346
G1 X36.22 Y97.218 E4.91149
G1 X35.913 Y96.66 E4.92953
G1 X35.679 Y96.068 E4.94756
G1 X35.52 Y95.452 E4.96557
G1 X35.44 Y94.82 E4.98361
G1 X35.43 Y94.5 E4.99268
G1 X35.43 Y25.5 E6.94683
G1 X35.47 Y24.865 E6.96485
G1 X35.589 Y24.239 E6.9829
G1 X35.693 Y23.921 E6.99237
G0 F1620 X35.786 Y23.634
G0 X36.057 Y23.058
G0 F4320 X36.316 Y23.127
G1 F2400 E7.01894
G1 F1800 X36.656 Y22.608 E7.03651
G1 X37.06 Y22.138 E7.05406
G1 X37.521 Y21.724 E7.07161
G1 X38.032 Y21.372 E7.08918
G1 X38.583 Y21.088 E7.10674
G1 X39.166 Y20.879 E7.12428
G1 X39.772 Y20.745 E7.14186
G1 X40.5 Y20.69 E7.16253
G1 X79.5 Y20.69 E8.26705
G1 X80.119 Y20.73 E8.28462
G1 X80.727 Y20.849 E8.30216
G1 X81.315 Y21.046 E8.31973
G1 X81.873 Y21.316 E8.33728
G1 X82.392 Y21.656 E8.35486
G1 X82.862 Y22.06 E8.37241
G1 X83.276 Y22.521 E8.38996
G1 X83.628 Y23.032 E8.40753
G1 X83.912 Y23.583 E8.42508
G1 X84.121 Y24.166 E8.44262
G1 X84.255 Y24.772 E8.4602
G1 X84.31 Y25.5 E8.48088
G1 X84.31 Y94.5 E10.43503
G1 X84.27 Y95.119 E10.45259
G1 X84.151 Y95.727 E10.47014
G1 X83.954 Y96.315 E10.4877
G1 X83.684 Y96.873 E10.50526
G1 X83.344 Y97.392 E10.52283
G1 X82.94 Y97.862 E10.54038
G1 X82.479 Y98.276 E10.55793
G1 X81.968 Y98.628 E10.5755
G1 X81.417 Y98.912 E10.59306
G1 X80.834 Y99.121 E10.6106
G1 X80.228 Y99.255 E10.62818
G1 X79.5 Y99.31 E10.64885
G1 X40.5 Y99.31 E11.75337
G1 X39.881 Y99.27 E11.77094
G1 X39.273 Y99.151 E11.78849
G1 X38.685 Y98.954 E11.80605
G1 X38.127 Y98.684 E11.8236
G1 X37.608 Y98.344 E11.84118
G1 X37.138 Y97.94 E11.85873
G1 X36.724 Y97.479 E11.87628
G1 X36.372 Y96.968 E11.89385
G1 X36.088 Y96.417 E11.91141
G1 X35.879 Y95.834 E11.92895
G1 X35.745 Y95.228 E11.94652
G1 X35.69 Y94.5 E11.9672
G1 X35.69 Y25.5 E13.92135
G1 X35.73 Y24.881 E13.93892
G1 X35.849 Y24.273 E13.95646
G1 X35.945 Y23.987 E13.96501
G0 F1620 X36.046 Y23.685
G0 X36.316 Y23.127
G0 F4320 X36.575 Y23.198
G1 F2400 E13.99157
G1 F1800 X36.914 Y22.699 E14.00866
G1 X37.316 Y22.25 E14.02572
G1 X37.774 Y21.857 E14.04282
G1 X38.28 Y21.529 E14.05989
G1 X38.824 Y21.27 E14.07696
G1 X39.398 Y21.085 E14.09404
G1 X39.992 Y20.978 E14.11113
G1 X40.5 Y20.95 E14.12554
G1 X79.5 Y20.95 E15.23006
G1 X80.102 Y20.99 E15.24715
G1 X80.693 Y21.109 E15.26422
G1 X81.263 Y21.305 E15.28129
G1 X81.802 Y21.575 E15.29836
G1 X82.301 Y21.914 E15.31545
G1 X82.75 Y22.316 E15.33252
G1 X83.143 Y22.774 E15.34961
G1 X83.471 Y23.28 E15.36669
G1 X83.73 Y23.824 E15.38375
G1 X83.915 Y24.398 E15.40083
G1 X84.022 Y24.992 E15.41792
G1 X84.05 Y25.5 E15.43233
G1 X84.05 Y94.5 E17.38648
G1 X84.01 Y95.102 E17.40357
G1 X83.891 Y95.693 E17.42064
G1 X83.695 Y96.263 E17.43771
G1 X83.425 Y96.802 E17.45479
G1 X83.086 Y97.301 E17.47187
G1 X82.684 Y97.75 E17.48894
G1 X82.226 Y98.143 E17.50603
G1 X81.72 Y98.471 E17.52311
G1 X81.176 Y98.73 E17.54017
G1 X80.602 Y98.915 E17.55725
G1 X80.008 Y99.022 E17.57434
G1 X79.5 Y99.05 E17.58875
G1 X40.5 Y99.05 E18.69327
G1 X39.898 Y99.01 E18.71036
G1 X39.307 Y98.891 E18.72743
G1 X38.737 Y98.695 E18.7445
G1 X38.198 Y98.425 E18.76158
G1 X37.699 Y98.086 E18.77866
G1 X37.25 Y97.684 E18.79573
G1 X36.857 Y97.226 E18.81282
G1 X36.529 Y96.72 E18.8299
G1 X36.27 Y96.176 E18.84696
G1 X36.085 Y95.602 E18.86404
G1 X35.978 Y95.008 E18.88114
G1 X35.95 Y94.5 E18.89555
G1 X35.95 Y25.5 E20.84969
G1 X35.99 Y24.898 E20.86678
G1 X36.109 Y24.307 E20.88386
G1 X36.196 Y24.055 E20.89141
G0 F1620 X36.305 Y23.737
G0 X36.575 Y23.198
G0 F4320 X36.834 Y23.271
G1 F2400 E20.91797
G1 F1800 X37.172 Y22.793 E20.93455
G1 X37.572 Y22.365 E20.95114
G1 X38.026 Y21.995 E20.96773
G1 X38.526 Y21.691 E20.9843
G1 X39.063 Y21.458 E21.00088
G1 X39.627 Y21.3 E21.01747
G1 X40.207 Y21.22 E21.03405
G1 X40.5 Y21.21 E21.04235
G1 X79.5 Y21.21 E22.14687
G1 X80.084 Y21.25 E22.16345
G1 X80.657 Y21.369 E22.18002
G1 X81.209 Y21.565 E22.19661
G1 X81.729 Y21.834 E22.21319
G1 X82.207 Y22.172 E22.22977
G1 X82.635 Y22.572 E22.24636
G1 X83.005 Y23.026 E22.26295
G1 X83.309 Y23.526 E22.27952
G1 X83.542 Y24.063 E22.2961
G1 X83.7 Y24.627 E22.31269
G1 X83.78 Y25.207 E22.32927
G1 X83.79 Y25.5 E22.33757
G1 X83.79 Y94.5 E24.29172
G1 X83.75 Y95.084 E24.3083
G1 X83.631 Y95.657 E24.32488
G1 X83.435 Y96.209 E24.34147
G1 X83.166 Y96.729 E24.35805
G1 X82.828 Y97.207 E24.37463
G1 X82.428 Y97.635 E24.39122
G1 X81.974 Y98.005 E24.4078
G1 X81.474 Y98.309 E24.42438
G1 X80.937 Y98.542 E24.44096
G1 X80.373 Y98.7 E24.45754
G1 X79.793 Y98.78 E24.47412
G1 X79.5 Y98.79 E24.48243
G1 X40.5 Y98.79 E25.58695
G1 X39.916 Y98.75 E25.60353
G1 X39.343 Y98.631 E25.6201
G1 X38.791 Y98.435 E25.63669
G1 X38.271 Y98.166 E25.65327
G1 X37.793 Y97.828 E25.66985
G1 X37.365 Y97.428 E25.68644
G1 X36.995 Y96.974 E25.70303
G1 X36.691 Y96.474 E25.7196
G1 X36.458 Y95.937 E25.73618
G1 X36.3 Y95.373 E25.75277
G1 X36.22 Y94.793 E25.76935
G1 X36.21 Y94.5 E25.77765
G1 X36.21 Y25.5 E27.7318
G1 X36.25 Y24.916 E27.74838
G1 X36.369 Y24.343 E27.76495
G1 X36.447 Y24.124 E27.77154
G0 F1620 X36.565 Y23.791
G0 X36.834 Y23.271
G0 F4320 X37.093 Y23.347
G1 F2400 E27.7981
G1 F1800 X37.43 Y22.89 E27.81418
G1 X37.827 Y22.484 E27.83026
G1 X38.277 Y22.139 E27.84632
G1 X38.771 Y21.86 E27.86239
G1 X39.299 Y21.653 E27.87845
G1 X39.852 Y21.522 E27.89455
G1 X40.5 Y21.47 E27.91296
G1 X79.5 Y21.47 E29.01748
G1 X80.066 Y21.51 E29.03355
G1 X80.621 Y21.629 E29.04962
G1 X81.153 Y21.825 E29.06568
G1 X81.653 Y22.093 E29.08175
G1 X82.11 Y22.43 E29.09783
G1 X82.516 Y22.827 E29.11391
G1 X82.861 Y23.277 E29.12997
G1 X83.14 Y23.771 E29.14604
G1 X83.347 Y24.299 E29.1621
G1 X83.478 Y24.852 E29.17819
G1 X83.53 Y25.5 E29.1966
G1 X83.53 Y94.5 E31.15075
G1 X83.49 Y95.066 E31.16682
G1 X83.371 Y95.621 E31.1829
G1 X83.175 Y96.153 E31.19895
G1 X82.907 Y96.653 E31.21502
G1 X82.57 Y97.11 E31.2311
G1 X82.173 Y97.516 E31.24718
G1 X81.723 Y97.861 E31.26324
G1 X81.229 Y98.14 E31.27931
G1 X80.701 Y98.347 E31.29537
G1 X80.148 Y98.478 E31.31147
G1 X79.5 Y98.53 E31.32988
G1 X40.5 Y98.53 E32.4344
G1 X39.934 Y98.49 E32.45047
G1 X39.379 Y98.371 E32.46654
G1 X38.847 Y98.175 E32.4826
G1 X38.347 Y97.907 E32.49867
G1 X37.89 Y97.57 E32.51475
G1 X37.484 Y97.173 E32.53083
G1 X37.139 Y96.723 E32.54689
G1 X36.86 Y96.229 E32.56296
G1 X36.653 Y95.701 E32.57902
G1 X36.522 Y95.148 E32.59511
G1 X36.47 Y94.5 E32.61352
G1 X36.47 Y25.5 E34.56767
G1 X36.51 Y24.934 E34.58374
G1 X36.629 Y24.379 E34.59982
G1 X36.697 Y24.195 E34.60537
G0 F1620 X36.825 Y23.847
G0 X37.093 Y23.347
G0 F4320 X37.084 Y23.904
G1 F2400 E34.63194
G1 F1800 X37.352 Y23.425 E34.64748
G1 X37.687 Y22.99 E34.66303
G1 X38.081 Y22.608 E34.67857
G1 X38.527 Y22.288 E34.69412
G1 X39.014 Y22.035 E34.70966
G1 X39.533 Y21.856 E34.72521
G1 X40.072 Y21.754 E34.74075
G1 X40.5 Y21.73 E34.75289
G1 X79.5 Y21.73 E35.85741
G1 X80.047 Y21.77 E35.87294
G1 X80.583 Y21.889 E35.88849
G1 X81.096 Y22.084 E35.90403
G1 X81.575 Y22.352 E35.91958
G1 X82.01 Y22.687 E35.93513
G1 X82.392 Y23.081 E35.95067
G1 X82.712 Y23.527 E35.96621
G1 X82.965 Y24.014 E35.98176
G1 X83.144 Y24.533 E35.9973
G1 X83.246 Y25.072 E36.01284
G1 X83.27 Y25.5 E36.02498
G1 X83.27 Y94.5 E37.97913
G1 X83.23 Y95.047 E37.99466
G1 X83.111 Y95.583 E38.01021
G1 X82.916 Y96.096 E38.02576
G1 X82.648 Y96.575 E38.0413
G1 X82.313 Y97.01 E38.05685
G1 X81.919 Y97.392 E38.07239
G1 X81.473 Y97.712 E38.08794
G1 X80.986 Y97.965 E38.10348
G1 X80.467 Y98.144 E38.11903
G1 X79.928 Y98.246 E38.13457
G1 X79.5 Y98.27 E38.14671
G1 X40.5 Y98.27 E39.25122
G1 X39.953 Y98.23 E39.26676
G1 X39.417 Y98.111 E39.28231
G1 X38.904 Y97.916 E39.29785
G1 X38.425 Y97.648 E39.3134
G1 X37.99 Y97.313 E39.32894
G1 X37.608 Y96.919 E39.34449
G1 X37.288 Y96.473 E39.36003
G1 X37.035 Y95.986 E39.37558
G1 X36.856 Y95.467 E39.39112
G1 X36.754 Y94.928 E39.40666
G1 X36.73 Y94.5 E39.4188
G1 X36.73 Y25.5 E41.37295
G1 X36.77 Y24.953 E41.38848
G1 X36.805 Y24.797 E41.39301
G0 F1620 X36.889 Y24.417
G0 X37.084 Y23.904
G0 F4320 X37.344 Y23.964
G1 F2400 E41.41957
G1 F1800 X37.611 Y23.506 E41.43459
G1 X37.944 Y23.095 E41.44957
G1 X38.335 Y22.737 E41.46458
G1 X38.775 Y22.443 E41.47957
G1 X39.254 Y22.218 E41.49456
G1 X39.762 Y22.068 E41.50956
G1 X40.5 Y21.99 E41.53058
G1 X79.5 Y21.99 E42.6351
G1 X80.028 Y22.03 E42.65009
G1 X80.544 Y22.149 E42.66509
G1 X81.036 Y22.344 E42.68008
G1 X81.494 Y22.611 E42.69509
G1 X81.905 Y22.944 E42.71007
G1 X82.263 Y23.335 E42.72509
G1 X82.557 Y23.775 E42.74007
G1 X82.782 Y24.254 E42.75506
G1 X82.932 Y24.762 E42.77006
G1 X83.01 Y25.5 E42.79108
G1 X83.01 Y94.5 E44.74523
G1 X82.97 Y95.028 E44.76023
G1 X82.851 Y95.544 E44.77522
G1 X82.656 Y96.036 E44.79021
G1 X82.389 Y96.494 E44.80523
G1 X82.056 Y96.905 E44.82021
G1 X81.665 Y97.263 E44.83522
G1 X81.225 Y97.557 E44.85021
G1 X80.746 Y97.782 E44.8652
G1 X80.238 Y97.932 E44.8802
G1 X79.5 Y98.01 E44.90122
G1 X40.5 Y98.01 E46.00573
G1 X39.972 Y97.97 E46.02073
G1 X39.456 Y97.851 E46.03573
G1 X38.964 Y97.656 E46.05072
G1 X38.506 Y97.389 E46.06573
G1 X38.095 Y97.056 E46.08071
G1 X37.737 Y96.665 E46.09573
G1 X37.443 Y96.225 E46.11071
G1 X37.218 Y95.746 E46.1257
G1 X37.068 Y95.238 E46.1407
G1 X36.99 Y94.5 E46.16172
G1 X36.99 Y25.5 E48.11587
G1 X37.03 Y24.972 E48.13086
G1 X37.057 Y24.854 E48.13429
G0 F1620 X37.149 Y24.456
G0 X37.344 Y23.964
G0 F4320 X37.604 Y24.026
G1 F2400 E48.16086
G1 F1800 X37.87 Y23.591 E48.1753
G1 X38.2 Y23.204 E48.1897
G1 X38.587 Y22.872 E48.20414
G1 X39.022 Y22.606 E48.21858
G1 X39.492 Y22.41 E48.23301
G1 X39.987 Y22.291 E48.24742
G1 X40.5 Y22.25 E48.262
G1 X79.5 Y22.25 E49.36652
G1 X80.008 Y22.29 E49.38095
G1 X80.503 Y22.409 E49.39537
G1 X80.974 Y22.604 E49.4098
G1 X81.409 Y22.87 E49.42425
G1 X81.796 Y23.2 E49.43865
G1 X82.128 Y23.587 E49.45309
G1 X82.394 Y24.022 E49.46753
G1 X82.59 Y24.492 E49.48195
G1 X82.709 Y24.987 E49.49637
G1 X82.75 Y25.5 E49.51095
G1 X82.75 Y94.5 E51.4651
G1 X82.71 Y95.008 E51.47953
G1 X82.591 Y95.503 E51.49394
G1 X82.396 Y95.974 E51.50838
G1 X82.13 Y96.409 E51.52282
G1 X81.8 Y96.796 E51.53723
G1 X81.413 Y97.128 E51.55167
G1 X80.978 Y97.394 E51.56611
G1 X80.508 Y97.59 E51.58053
G1 X80.013 Y97.709 E51.59495
G1 X79.5 Y97.75 E51.60952
G1 X40.5 Y97.75 E52.71404
G1 X39.992 Y97.71 E52.72847
G1 X39.497 Y97.591 E52.74289
G1 X39.026 Y97.396 E52.75733
G1 X38.591 Y97.13 E52.77177
G1 X38.204 Y96.8 E52.78617
G1 X37.872 Y96.413 E52.80061
G1 X37.606 Y95.978 E52.81505
G1 X37.41 Y95.508 E52.82948
G1 X37.291 Y95.013 E52.84389
G1 X37.25 Y94.5 E52.85847
G1 X37.25 Y25.5 E54.81262
G1 X37.29 Y24.992 E54.82705
G1 X37.309 Y24.914 E54.82932
G0 F1620 X37.409 Y24.497
G0 X37.604 Y24.026
G0 F4320 X37.863 Y24.091
G1 F2400 E54.85589
G1 F1800 X38.128 Y23.68 E54.86974
G1 X38.456 Y23.318 E54.88357
G1 X38.839 Y23.014 E54.89742
G1 X39.266 Y22.777 E54.91125
G1 X39.726 Y22.612 E54.92509
G1 X40.207 Y22.524 E54.93894
G1 X40.5 Y22.51 E54.94725
G1 X79.5 Y22.51 E56.05177
G1 X79.987 Y22.55 E56.06561
G1 X80.461 Y22.669 E56.07945
G1 X80.909 Y22.863 E56.09327
G1 X81.32 Y23.128 E56.10712
G1 X81.682 Y23.456 E56.12096
G1 X81.986 Y23.839 E56.13481
G1 X82.223 Y24.266 E56.14864
G1 X82.388 Y24.726 E56.16248
G1 X82.476 Y25.207 E56.17633
G1 X82.49 Y25.5 E56.18464
G1 X82.49 Y94.5 E58.13878
G1 X82.45 Y94.987 E58.15262
G1 X82.331 Y95.461 E58.16646
G1 X82.137 Y95.909 E58.18029
G1 X81.872 Y96.32 E58.19414
G1 X81.544 Y96.682 E58.20797
G1 X81.161 Y96.986 E58.22182
G1 X80.734 Y97.223 E58.23565
G1 X80.274 Y97.388 E58.24949
G1 X79.793 Y97.476 E58.26334
G1 X79.5 Y97.49 E58.27165
G1 X40.5 Y97.49 E59.37617
G1 X40.013 Y97.45 E59.39001
G1 X39.539 Y97.331 E59.40385
G1 X39.091 Y97.137 E59.41768
G1 X38.68 Y96.872 E59.43153
G1 X38.318 Y96.544 E59.44536
G1 X38.014 Y96.161 E59.45921
G1 X37.777 Y95.734 E59.47304
G1 X37.612 Y95.274 E59.48688
G1 X37.524 Y94.793 E59.50073
G1 X37.51 Y94.5 E59.50904
G1 X37.51 Y25.5 E61.46319
G1 X37.55 Y25.013 E61.47702
G1 X37.56 Y24.976 E61.47811
G0 F1620 X37.669 Y24.539
G0 X37.863 Y24.091
G0 F4320 X38.122 Y24.158
G1 F2400 E61.50467
G1 F1800 X38.386 Y23.773 E61.5179
G1 X38.711 Y23.438 E61.53111
G1 X39.089 Y23.163 E61.54435
G1 X39.507 Y22.957 E61.55755
G1 X39.955 Y22.825 E61.57078
G1 X40.5 Y22.77 E61.58629
G1 X79.5 Y22.77 E62.69081
G1 X79.965 Y22.81 E62.70403
G1 X80.417 Y22.929 E62.71727
G1 X80.842 Y23.122 E62.73048
G1 X81.227 Y23.386 E62.74371
G1 X81.562 Y23.711 E62.75692
G1 X81.837 Y24.089 E62.77016
G1 X82.043 Y24.507 E62.78336
G1 X82.175 Y24.955 E62.79659
G1 X82.23 Y25.5 E62.8121
G1 X82.23 Y94.5 E64.76625
G1 X82.19 Y94.965 E64.77947
G1 X82.071 Y95.417 E64.79271
G1 X81.878 Y95.842 E64.80592
G1 X81.614 Y96.227 E64.81915
G1 X81.289 Y96.562 E64.83236
G1 X80.911 Y96.837 E64.8456
G1 X80.493 Y97.043 E64.8588
G1 X80.045 Y97.175 E64.87203
G1 X79.5 Y97.23 E64.88754
G1 X40.5 Y97.23 E65.99206
G1 X40.035 Y97.19 E66.00528
G1 X39.583 Y97.071 E66.01852
G1 X39.158 Y96.878 E66.03173
G1 X38.773 Y96.614 E66.04496
G1 X38.438 Y96.289 E66.05817
G1 X38.163 Y95.911 E66.07141
G1 X37.957 Y95.493 E66.08461
G1 X37.825 Y95.045 E66.09784
G1 X37.77 Y94.5 E66.11335
G1 X37.77 Y25.5 E68.0675
G1 X37.81 Y25.039 E68.08061
G0 F1620 X37.81 Y25.035
G0 X37.929 Y24.583
G0 X38.122 Y24.158
G0 F4320 X38.382 Y24.23
G1 F2400 E68.10717
G1 F1800 X38.643 Y23.871 E68.11974
G1 X38.965 Y23.565 E68.13232
G1 X39.336 Y23.321 E68.1449
G1 X39.745 Y23.148 E68.15747
G1 X40.178 Y23.051 E68.17004
G1 X40.5 Y23.03 E68.17918
G1 X79.5 Y23.03 E69.2837
G1 X79.942 Y23.07 E69.29627
G1 X80.37 Y23.188 E69.30884
G1 X80.77 Y23.382 E69.32143
G1 X81.129 Y23.643 E69.334
G1 X81.435 Y23.965 E69.34658
G1 X81.679 Y24.336 E69.35916
G1 X81.852 Y24.745 E69.37174
G1 X81.949 Y25.178 E69.3843
G1 X81.97 Y25.5 E69.39344
G1 X81.97 Y94.5 E71.34759
G1 X81.93 Y94.942 E71.36016
G1 X81.812 Y95.37 E71.37273
G1 X81.618 Y95.77 E71.38532
G1 X81.357 Y96.129 E71.39789
G1 X81.035 Y96.435 E71.41047
G1 X80.664 Y96.679 E71.42305
G1 X80.255 Y96.852 E71.43563
G1 X79.822 Y96.949 E71.44819
G1 X79.5 Y96.97 E71.45733
G1 X40.5 Y96.97 E72.56185
G1 X40.058 Y96.93 E72.57442
G1 X39.63 Y96.812 E72.58699
G1 X39.23 Y96.618 E72.59958
G1 X38.871 Y96.357 E72.61216
G1 X38.565 Y96.035 E72.62474
G1 X38.321 Y95.664 E72.63731
G1 X38.148 Y95.255 E72.64989
G1 X38.051 Y94.822 E72.66246
G1 X38.03 Y94.5 E72.67159
G1 X38.03 Y25.5 E74.62574
G1 X38.066 Y25.108 E74.63689
G0 F1620 X38.07 Y25.058
G0 X38.188 Y24.63
G0 X38.382 Y24.23
G0 F4320 X38.641 Y24.306
G1 F2400 E74.66346
