;FLAVOR:Marlin
;TIME:6516
;Filament used: 3.58271m
;Layer height: 0.175
;Generated with Cura_SteamEngine 3.3.1
M190 S65
M104 S205
M109 S205
M82 ;absolute extrusion mode
G21;(metric values)
G90;(absolute positioning)
M82;(set extruder to absolute mode)
M107;(start with the fan off)
G28;(Home the printer)
G92 E0;(Reset the extruder to 0)
G0 Z5 E5 F500;(Move up and prime the nozzle)
G0 X-1 Z0;(Move outside the printable area)
G1 Y60 E8 F500;(Draw a priming/wiping line to the rear)
G1 X-1;(Move a little closer to the print area)
G1 Y10 E16 F500;(draw more priming/wiping)
G1 E15 F250;(Small retract)
G92 E0;(Zero the extruder)
G92 E0
G1 F2400 E-2.5
;LAYER_COUNT:83
;LAYER:0
M107
G0 F4320 X35.9 Y32.987 Z0.262
;TYPE:SKIRT
G1 F2400 E0
G1 F1800 X35.976 Y32.911 E0.00304
G1 X36.453 Y32.49 E0.02106
G1 X36.98 Y32.132 E0.03911
G1 X37.547 Y31.843 E0.05713
G1 X38.146 Y31.627 E0.07516
G1 X38.767 Y31.489 E0.09318
G1 X39.561 Y31.426 E0.11574
G1 X66.651 Y31.426 E0.88295
G1 X67.286 Y31.466 E0.90097
G1 X67.912 Y31.585 E0.91902
G1 X68.517 Y31.782 E0.93704
G1 X69.072 Y32.043 E0.95441
G1 X69.494 Y31.67 E0.97036
G1 X70.021 Y31.312 E0.9884
G1 X70.588 Y31.023 E1.00643
G1 X71.187 Y30.807 E1.02446
G1 X71.808 Y30.669 E1.04248
G1 X72.602 Y30.606 E1.06503
G1 X84.432 Y30.606 E1.40007
G1 X85.067 Y30.646 E1.41809
G1 X85.693 Y30.765 E1.43614
G1 X86.298 Y30.962 E1.45416
G1 X86.874 Y31.233 E1.47218
G1 X87.411 Y31.574 E1.4902
G1 X88.017 Y32.091 E1.51276
G1 X88.093 Y32.167 E1.5158
G1 X88.514 Y32.644 E1.53382
G1 X88.872 Y33.171 E1.55186
G1 X89.161 Y33.738 E1.56989
G1 X89.377 Y34.337 E1.58792
G1 X89.515 Y34.958 E1.60594
G1 X89.578 Y35.752 E1.6285
G1 X89.578 Y48.665 E1.9942
G1 X89.556 Y49.138 E2.00762
G1 X89.453 Y50.237 E2.03888
G1 X89.28 Y51.158 E2.06542
G1 X88.976 Y52.221 E2.09673
G1 X88.637 Y53.093 E2.12322
G1 X88.145 Y54.078 E2.15441
G1 X87.655 Y54.867 E2.18071
G1 X87.408 Y55.195 E2.19234
G1 X87.715 Y55.543 E2.20548
G1 X88.073 Y56.07 E2.22353
G1 X88.362 Y56.637 E2.24155
G1 X88.578 Y57.236 E2.25958
G1 X88.716 Y57.857 E2.2776
G1 X88.779 Y58.651 E2.30016
G1 X88.779 Y71.565 E2.66589
G1 X88.754 Y72.068 E2.68016
G1 X88.638 Y73.231 E2.71326
G1 X88.535 Y73.859 E2.73128
G1 X88.443 Y74.205 E2.74142
G1 X88.099 Y75.335 E2.77487
G1 X87.876 Y75.931 E2.7929
G1 X87.718 Y76.253 E2.80305
G1 X87.167 Y77.281 E2.83609
G1 X86.831 Y77.822 E2.85412
G1 X86.611 Y78.11 E2.86439
G1 X85.862 Y79.019 E2.89774
G1 X85.427 Y79.484 E2.91578
G1 X85.163 Y79.716 E2.92573
G1 X84.253 Y80.462 E2.95906
G1 X83.737 Y80.834 E2.97707
G1 X83.427 Y81.013 E2.98721
G1 X82.397 Y81.563 E3.02028
G1 X81.818 Y81.827 E3.0383
G1 X81.478 Y81.944 E3.04848
G1 X80.348 Y82.286 E3.08192
G1 X79.728 Y82.431 E3.09995
G1 X79.372 Y82.479 E3.11013
G1 X78.206 Y82.593 E3.14331
G1 X77.57 Y82.615 E3.16133
G1 X77.207 Y82.592 E3.17163
G1 X76.04 Y82.475 E3.20485
G1 X75.412 Y82.372 E3.22287
G1 X75.071 Y82.281 E3.23287
G1 X73.94 Y81.937 E3.26634
G1 X73.343 Y81.713 E3.2844
G1 X73.02 Y81.555 E3.29459
G1 X71.992 Y81.004 E3.32762
G1 X71.451 Y80.668 E3.34566
G1 X71.162 Y80.447 E3.35596
G1 X70.252 Y79.697 E3.38936
G1 X70.062 Y79.519 E3.39673
G1 X69.971 Y79.677 E3.40189
G1 X69.541 Y80.307 E3.4235
G1 X68.002 Y82.232 E3.4933
G1 X67.486 Y82.786 E3.51474
G1 X65.68 Y84.458 E3.58444
G1 X65.088 Y84.93 E3.60588
G1 X63.045 Y86.32 E3.67586
G1 X62.387 Y86.699 E3.69737
G1 X60.318 Y87.692 E3.76236
G1 X59.728 Y87.931 E3.78039
G1 X59.112 Y88.094 E3.79844
G1 X58.481 Y88.178 E3.81647
G1 X57.845 Y88.183 E3.83448
G1 X57.213 Y88.108 E3.8525
G1 X56.639 Y87.966 E3.86925
G1 X56.274 Y88.317 E3.88359
G1 X55.764 Y88.697 E3.9016
G1 X55.21 Y89.01 E3.91962
G1 X54.621 Y89.252 E3.93766
G1 X54.006 Y89.417 E3.95569
G1 X53.285 Y89.511 E3.97628
G1 X52.252 Y89.57 E4.00559
G1 X51.67 Y89.57 E4.02207
G1 X50.651 Y89.511 E4.05098
G1 X50.019 Y89.434 E4.06901
G1 X49.402 Y89.279 E4.08703
G1 X48.809 Y89.047 E4.10506
G1 X48.249 Y88.744 E4.12309
G1 X47.732 Y88.372 E4.14113
G1 X47.298 Y87.969 E4.1579
G1 X46.731 Y88.109 E4.17444
G1 X46.099 Y88.183 E4.19247
G1 X45.462 Y88.178 E4.21051
G1 X44.831 Y88.093 E4.22854
G1 X44.216 Y87.93 E4.24656
G1 X43.626 Y87.691 E4.26459
G1 X41.549 Y86.693 E4.32985
G1 X40.891 Y86.313 E4.35137
G1 X38.85 Y84.923 E4.4213
G1 X38.258 Y84.452 E4.44273
G1 X36.45 Y82.777 E4.51253
G1 X35.934 Y82.221 E4.53401
G1 X34.398 Y80.297 E4.60373
G1 X33.968 Y79.667 E4.62534
G1 X32.736 Y77.531 E4.69517
G1 X32.41 Y76.855 E4.71643
G1 X31.504 Y74.553 E4.78649
G1 X31.278 Y73.821 E4.80819
G1 X30.733 Y71.426 E4.87775
G1 X30.621 Y70.679 E4.89914
G1 X30.437 Y68.216 E4.96909
G1 X30.437 Y67.459 E4.99053
G1 X30.622 Y64.994 E5.06054
G1 X30.735 Y64.244 E5.08202
G1 X31.282 Y61.85 E5.15156
G1 X31.507 Y61.123 E5.17312
G1 X32.407 Y58.835 E5.24275
G1 X32.734 Y58.156 E5.26409
G1 X33.969 Y56.017 E5.33404
G1 X34.398 Y55.389 E5.35558
G1 X35.934 Y53.465 E5.42531
G1 X36.448 Y52.911 E5.44671
G1 X36.714 Y52.664 E5.45699
G1 X36.582 Y52.58 E5.46142
G1 X35.976 Y52.063 E5.48398
G1 X35.9 Y51.987 E5.48702
G1 X35.479 Y51.51 E5.50504
G1 X35.121 Y50.983 E5.52309
G1 X34.832 Y50.416 E5.54111
G1 X34.616 Y49.817 E5.55914
G1 X34.478 Y49.196 E5.57716
G1 X34.415 Y48.402 E5.59972
G1 X34.415 Y36.572 E5.93475
G1 X34.455 Y35.937 E5.95277
G1 X34.574 Y35.311 E5.97082
G1 X34.771 Y34.706 E5.98884
G1 X35.042 Y34.13 E6.00687
G1 X35.307 Y33.712 E6.02088
G0 F1620 X35.383 Y33.593
G0 X35.9 Y32.987
G0 F4320 X36.084 Y33.171
G1 F2400 E6.04745
G1 F1800 X36.16 Y33.095 E6.05049
G1 X36.626 Y32.686 E6.06805
G1 X37.14 Y32.34 E6.0856
G1 X37.695 Y32.063 E6.10317
G1 X38.281 Y31.86 E6.12073
G1 X38.888 Y31.733 E6.1383
G1 X39.561 Y31.686 E6.1574
G1 X66.651 Y31.686 E6.92462
G1 X67.27 Y31.726 E6.94219
G1 X67.878 Y31.845 E6.95973
G1 X68.466 Y32.042 E6.97729
G1 X69.024 Y32.312 E6.99485
G1 X69.11 Y32.368 E6.99776
G1 X69.125 Y32.351 E6.9984
G1 X69.201 Y32.275 E7.00144
G1 X69.667 Y31.866 E7.019
G1 X70.181 Y31.52 E7.03655
G1 X70.736 Y31.243 E7.05412
G1 X71.322 Y31.04 E7.07168
G1 X71.929 Y30.913 E7.08924
G1 X72.602 Y30.866 E7.10835
G1 X84.432 Y30.866 E7.44339
G1 X85.051 Y30.906 E7.46095
G1 X85.659 Y31.025 E7.4785
G1 X86.247 Y31.222 E7.49606
G1 X86.805 Y31.492 E7.51362
G1 X87.324 Y31.832 E7.53119
G1 X87.833 Y32.275 E7.5503
G1 X87.909 Y32.351 E7.55335
G1 X88.318 Y32.817 E7.57091
G1 X88.664 Y33.331 E7.58845
G1 X88.941 Y33.886 E7.60602
G1 X89.144 Y34.472 E7.62358
G1 X89.271 Y35.079 E7.64115
G1 X89.318 Y35.752 E7.66025
G1 X89.318 Y48.665 E8.02596
G1 X89.297 Y49.114 E8.03869
G1 X89.194 Y50.213 E8.06995
G1 X89.03 Y51.087 E8.09514
G1 X88.726 Y52.15 E8.12645
G1 X88.404 Y52.976 E8.15156
G1 X87.912 Y53.961 E8.18274
G1 X87.448 Y54.71 E8.20769
G1 X87.07 Y55.21 E8.22545
G1 X87.11 Y55.25 E8.22705
G1 X87.519 Y55.716 E8.24461
G1 X87.865 Y56.23 E8.26216
G1 X88.142 Y56.785 E8.27972
G1 X88.345 Y57.371 E8.29729
G1 X88.472 Y57.978 E8.31485
G1 X88.519 Y58.651 E8.33396
G1 X88.519 Y71.565 E8.69969
G1 X88.495 Y72.042 E8.71322
G1 X88.379 Y73.205 E8.74632
G1 X88.278 Y73.817 E8.76389
G1 X88.195 Y74.129 E8.77303
G1 X87.851 Y75.259 E8.80648
G1 X87.632 Y75.839 E8.82404
G1 X87.488 Y76.13 E8.83324
G1 X86.937 Y77.158 E8.86627
G1 X86.61 Y77.685 E8.88383
G1 X86.41 Y77.945 E8.89312
G1 X85.661 Y78.854 E8.92648
G1 X85.237 Y79.306 E8.94403
G1 X84.998 Y79.515 E8.95303
G1 X84.088 Y80.261 E8.98635
G1 X83.585 Y80.622 E9.00388
G1 X83.305 Y80.784 E9.01305
G1 X82.275 Y81.334 E9.04612
G1 X81.71 Y81.59 E9.06368
G1 X81.402 Y81.695 E9.0729
G1 X80.272 Y82.037 E9.10633
G1 X79.669 Y82.178 E9.12387
G1 X79.347 Y82.22 E9.13307
G1 X78.181 Y82.334 E9.16625
G1 X77.561 Y82.355 E9.18382
G1 X77.233 Y82.333 E9.19313
G1 X76.066 Y82.216 E9.22634
G1 X75.455 Y82.115 E9.24388
G1 X75.146 Y82.032 E9.25295
G1 X74.015 Y81.688 E9.28643
G1 X73.435 Y81.47 E9.30397
G1 X73.143 Y81.325 E9.31321
G1 X72.115 Y80.774 E9.34624
G1 X71.588 Y80.447 E9.3638
G1 X71.328 Y80.247 E9.37309
G1 X70.418 Y79.497 E9.40649
G1 X70.001 Y79.105 E9.4227
G1 X69.746 Y79.547 E9.43715
G1 X69.338 Y80.145 E9.45765
G1 X67.799 Y82.07 E9.52745
G1 X67.31 Y82.596 E9.54779
G1 X65.504 Y84.268 E9.61749
G1 X64.942 Y84.715 E9.63783
G1 X62.899 Y86.105 E9.70781
G1 X62.274 Y86.464 E9.72823
G1 X60.205 Y87.457 E9.79322
G1 X59.63 Y87.689 E9.81078
G1 X59.03 Y87.845 E9.82834
G1 X58.415 Y87.922 E9.84589
G1 X57.795 Y87.92 E9.86345
G1 X57.18 Y87.838 E9.88102
G1 X56.582 Y87.677 E9.89856
G1 X56.56 Y87.668 E9.89924
G1 X56.464 Y87.782 E9.90346
G1 X56.007 Y88.2 E9.921
G1 X55.499 Y88.556 E9.93857
G1 X54.95 Y88.844 E9.95612
G1 X54.368 Y89.059 E9.97369
G1 X53.764 Y89.197 E9.99124
G1 X53.27 Y89.251 E10.00532
G1 X52.237 Y89.31 E10.03462
G1 X51.685 Y89.31 E10.05025
G1 X50.666 Y89.251 E10.07916
G1 X50.051 Y89.175 E10.09671
G1 X49.45 Y89.021 E10.11428
G1 X48.874 Y88.791 E10.13184
G1 X48.333 Y88.489 E10.14939
G1 X47.835 Y88.119 E10.16696
G1 X47.389 Y87.689 E10.18451
G1 X47.371 Y87.667 E10.18531
G1 X47.24 Y87.717 E10.18928
G1 X46.637 Y87.862 E10.20685
G1 X46.02 Y87.927 E10.22442
G1 X45.4 Y87.912 E10.24198
G1 X44.787 Y87.818 E10.25955
G1 X44.192 Y87.646 E10.27709
G1 X43.739 Y87.456 E10.291
G1 X41.662 Y86.458 E10.35626
G1 X41.037 Y86.099 E10.37667
G1 X38.996 Y84.709 E10.44661
G1 X38.435 Y84.261 E10.46694
G1 X36.627 Y82.586 E10.53674
G1 X36.137 Y82.059 E10.55712
G1 X34.601 Y80.135 E10.62685
G1 X34.193 Y79.537 E10.64735
G1 X32.961 Y77.401 E10.71718
G1 X32.652 Y76.76 E10.73734
G1 X31.746 Y74.458 E10.8074
G1 X31.532 Y73.763 E10.828
G1 X30.987 Y71.368 E10.89756
G1 X30.88 Y70.659 E10.91786
G1 X30.696 Y68.196 E10.98781
G1 X30.696 Y67.478 E11.00815
G1 X30.881 Y65.013 E11.07816
G1 X30.989 Y64.302 E11.09852
G1 X31.536 Y61.908 E11.16807
G1 X31.749 Y61.218 E11.18852
G1 X32.649 Y58.93 E11.25815
G1 X32.959 Y58.286 E11.2784
G1 X34.194 Y56.147 E11.34835
G1 X34.601 Y55.551 E11.36879
G1 X36.137 Y53.627 E11.43851
G1 X36.625 Y53.101 E11.45883
G1 X37.135 Y52.628 E11.47853
G1 X36.669 Y52.322 E11.49432
G1 X36.16 Y51.879 E11.51343
G1 X36.084 Y51.803 E11.51647
G1 X35.675 Y51.337 E11.53403
G1 X35.329 Y50.823 E11.55158
G1 X35.052 Y50.268 E11.56915
G1 X34.849 Y49.682 E11.58671
G1 X34.722 Y49.075 E11.60427
G1 X34.675 Y48.402 E11.62338
G1 X34.675 Y36.572 E11.95842
G1 X34.715 Y35.953 E11.97599
G1 X34.834 Y35.345 E11.99353
G1 X35.031 Y34.757 E12.01109
G1 X35.301 Y34.199 E12.02865
G1 X35.497 Y33.9 E12.03878
G0 F1620 X35.641 Y33.68
G0 X36.084 Y33.171
G0 F4320 X36.268 Y33.355
G1 F2400 E12.06534
G1 F1800 X36.344 Y33.279 E12.06838
G1 X36.797 Y32.881 E12.08546
G1 X37.3 Y32.548 E12.10255
G1 X37.842 Y32.283 E12.11963
G1 X38.414 Y32.093 E12.1367
G1 X39.006 Y31.98 E12.15377
G1 X39.561 Y31.946 E12.16952
G1 X66.651 Y31.946 E12.93674
G1 X67.253 Y31.986 E12.95382
G1 X67.844 Y32.105 E12.9709
G1 X68.414 Y32.301 E12.98797
G1 X68.953 Y32.571 E13.00504
G1 X69.155 Y32.708 E13.01195
G1 X69.309 Y32.535 E13.01851
G1 X69.385 Y32.459 E13.02156
G1 X69.838 Y32.061 E13.03863
G1 X70.341 Y31.728 E13.05572
G1 X70.883 Y31.463 E13.0728
G1 X71.455 Y31.273 E13.08987
G1 X72.047 Y31.16 E13.10694
G1 X72.602 Y31.126 E13.12269
G1 X84.432 Y31.126 E13.45773
G1 X85.034 Y31.166 E13.47481
G1 X85.625 Y31.285 E13.49189
G1 X86.195 Y31.481 E13.50896
G1 X86.734 Y31.751 E13.52603
G1 X87.233 Y32.09 E13.54312
G1 X87.649 Y32.459 E13.55887
G1 X87.725 Y32.535 E13.56191
G1 X88.123 Y32.988 E13.57899
G1 X88.456 Y33.491 E13.59607
G1 X88.721 Y34.033 E13.61316
G1 X88.911 Y34.605 E13.63023
G1 X89.024 Y35.197 E13.6473
G1 X89.058 Y35.752 E13.66304
G1 X89.058 Y48.665 E14.02875
G1 X89.038 Y49.09 E14.0408
G1 X88.935 Y50.189 E14.07206
G1 X88.78 Y51.015 E14.09587
G1 X88.476 Y52.078 E14.12718
G1 X88.171 Y52.86 E14.15095
G1 X87.679 Y53.845 E14.18213
G1 X87.24 Y54.554 E14.20575
G1 X86.72 Y55.243 E14.2302
G1 X86.85 Y55.358 E14.23511
G1 X86.926 Y55.434 E14.23816
G1 X87.324 Y55.887 E14.25523
G1 X87.657 Y56.39 E14.27232
G1 X87.922 Y56.932 E14.2894
G1 X88.112 Y57.504 E14.30647
G1 X88.225 Y58.096 E14.32354
G1 X88.259 Y58.651 E14.33929
G1 X88.259 Y71.565 E14.70503
G1 X88.237 Y72.017 E14.71784
G1 X88.121 Y73.18 E14.75095
G1 X87.946 Y74.053 E14.77616
G1 X87.602 Y75.183 E14.80961
G1 X87.259 Y76.007 E14.83489
G1 X86.708 Y77.035 E14.86792
G1 X86.21 Y77.779 E14.89328
G1 X85.461 Y78.688 E14.92664
G1 X84.834 Y79.314 E14.95173
G1 X83.924 Y80.06 E14.98505
G1 X83.182 Y80.555 E15.01032
G1 X82.152 Y81.105 E15.04338
G1 X81.327 Y81.446 E15.06867
G1 X80.197 Y81.788 E15.1021
G1 X79.322 Y81.961 E15.12736
G1 X78.156 Y82.075 E15.16054
G1 X77.259 Y82.074 E15.18595
G1 X76.092 Y81.957 E15.21916
G1 X75.222 Y81.783 E15.24429
G1 X74.091 Y81.439 E15.27777
G1 X73.266 Y81.096 E15.30307
G1 X72.238 Y80.545 E15.33611
G1 X71.493 Y80.046 E15.3615
G1 X70.583 Y79.296 E15.3949
G1 X69.958 Y78.669 E15.41997
G1 X69.955 Y78.666 E15.42009
G1 X69.521 Y79.417 E15.44466
G1 X69.135 Y79.982 E15.46404
G1 X67.596 Y81.907 E15.53384
G1 X67.133 Y82.405 E15.55309
G1 X65.327 Y84.077 E15.62279
G1 X64.795 Y84.5 E15.64204
G1 X62.752 Y85.89 E15.71203
G1 X62.162 Y86.23 E15.73131
G1 X60.093 Y87.223 E15.79631
G1 X59.533 Y87.447 E15.81339
G1 X58.949 Y87.596 E15.83046
G1 X58.35 Y87.665 E15.84753
G1 X57.747 Y87.655 E15.86461
G1 X57.15 Y87.566 E15.88171
G1 X56.571 Y87.398 E15.89878
G1 X56.483 Y87.359 E15.90151
G1 X56.195 Y87.684 E15.91381
G1 X55.74 Y88.079 E15.93087
G1 X55.235 Y88.41 E15.94797
G1 X54.692 Y88.671 E15.96503
G1 X54.119 Y88.858 E15.9821
G1 X53.255 Y88.992 E16.00687
G1 X52.222 Y89.051 E16.03617
G1 X51.7 Y89.05 E16.05095
G1 X50.681 Y88.991 E16.07986
G1 X50.083 Y88.917 E16.09693
G1 X49.499 Y88.764 E16.11402
G1 X48.942 Y88.535 E16.13108
G1 X48.419 Y88.234 E16.14817
G1 X47.941 Y87.867 E16.16524
G1 X47.515 Y87.44 E16.18232
G1 X47.453 Y87.358 E16.18523
G1 X47.131 Y87.479 E16.19497
G1 X46.544 Y87.613 E16.21202
G1 X45.943 Y87.669 E16.22912
G1 X45.341 Y87.645 E16.24618
G1 X44.747 Y87.542 E16.26326
G1 X44.171 Y87.361 E16.28035
G1 X43.851 Y87.222 E16.29024
G1 X41.774 Y86.224 E16.3555
G1 X41.184 Y85.884 E16.37478
G1 X39.143 Y84.494 E16.44472
G1 X38.612 Y84.071 E16.46394
G1 X36.804 Y82.396 E16.53374
G1 X36.34 Y81.897 E16.55304
G1 X34.804 Y79.973 E16.62277
G1 X34.419 Y79.407 E16.64215
G1 X33.187 Y77.271 E16.71199
G1 X32.894 Y76.664 E16.73108
G1 X31.988 Y74.362 E16.80114
G1 X31.785 Y73.706 E16.82059
G1 X31.24 Y71.311 E16.89015
G1 X31.14 Y70.64 E16.90936
G1 X30.956 Y68.177 E16.97931
G1 X30.956 Y67.497 E16.99857
G1 X31.141 Y65.032 E17.06858
G1 X31.242 Y64.359 E17.08785
G1 X31.789 Y61.965 E17.1574
G1 X31.991 Y61.313 E17.17673
G1 X32.891 Y59.025 E17.24636
G1 X33.185 Y58.416 E17.26551
G1 X34.42 Y56.277 E17.33546
G1 X34.804 Y55.713 E17.35479
G1 X36.34 Y53.789 E17.42451
G1 X36.802 Y53.292 E17.44373
G1 X37.585 Y52.566 E17.47397
G1 X37.259 Y52.403 E17.48429
G1 X36.76 Y52.064 E17.50138
G1 X36.344 Y51.695 E17.51713
G1 X36.268 Y51.619 E17.52017
G1 X35.87 Y51.166 E17.53725
G1 X35.537 Y50.663 E17.55433
G1 X35.272 Y50.121 E17.57142
G1 X35.082 Y49.549 E17.58849
G1 X34.969 Y48.957 E17.60556
G1 X34.935 Y48.402 E17.62131
G1 X34.935 Y36.572 E17.95634
G1 X34.975 Y35.97 E17.97343
G1 X35.094 Y35.379 E17.9905
G1 X35.29 Y34.809 E18.00757
G1 X35.56 Y34.27 E18.02465
G1 X35.685 Y34.087 E18.03092
G0 F1620 X35.899 Y33.771
G0 X36.268 Y33.355
G0 F4320 X36.452 Y33.539
G1 F2400 E18.05749
G1 F1800 X36.528 Y33.463 E18.06053
G1 X36.969 Y33.078 E18.07711
G1 X37.458 Y32.757 E18.09368
G1 X37.987 Y32.505 E18.11027
G1 X38.545 Y32.328 E18.12685
G1 X39.122 Y32.229 E18.14343
G1 X39.561 Y32.206 E18.15588
G1 X66.651 Y32.206 E18.9231
G1 X67.235 Y32.246 E18.93968
G1 X67.808 Y32.365 E18.95625
G1 X68.36 Y32.561 E18.97284
G1 X68.88 Y32.83 E18.98942
G1 X69.193 Y33.052 E19.00029
G1 X69.198 Y33.045 E19.00053
G1 X69.493 Y32.719 E19.01298
G1 X69.569 Y32.643 E19.01603
G1 X70.01 Y32.258 E19.03261
G1 X70.499 Y31.937 E19.04917
G1 X71.028 Y31.685 E19.06577
G1 X71.586 Y31.508 E19.08235
G1 X72.163 Y31.409 E19.09893
G1 X72.602 Y31.386 E19.11138
G1 X84.432 Y31.386 E19.44642
G1 X85.016 Y31.426 E19.46299
G1 X85.589 Y31.545 E19.47957
G1 X86.141 Y31.741 E19.49616
G1 X86.661 Y32.01 E19.51274
G1 X87.139 Y32.348 E19.52932
G1 X87.465 Y32.643 E19.54177
G1 X87.541 Y32.719 E19.54481
G1 X87.926 Y33.16 E19.56139
G1 X88.247 Y33.649 E19.57796
G1 X88.499 Y34.178 E19.59455
G1 X88.676 Y34.736 E19.61113
G1 X88.775 Y35.313 E19.62771
G1 X88.798 Y35.752 E19.64016
G1 X88.798 Y48.665 E20.00587
G1 X88.779 Y49.065 E20.01721
